;FLAVOR:Marlin
;TIME:1650
;Filament used: 2.85122m
;Layer height: 0.32
;MINX:81.013
;MINY:82.012
;MINZ:0.32
;MAXX:154.724
;MAXY:150.227
;MAXZ:16.32
;Generated with Cura_SteamEngine 4.13.1
M140 S50
M105
M190 S50
M104 S200
M105
M109 S200
M82 ;absolute extrusion mode
; Ender 3 Custom Start G-code
G92 E0 ; Reset Extruder
G28 ; Home all axes
G1 Z2.0 F3000 ; Move Z Axis up little to prevent scratching of Heat Bed
G1 X0.1 Y20 Z0.3 F5000.0 ; Move to start position
G1 X0.1 Y200.0 Z0.3 F1500.0 E15 ; Draw the first line
G1 X0.4 Y200.0 Z0.3 F5000.0 ; Move to side a little
G1 X0.4 Y20 Z0.3 F1500.0 E30 ; Draw the second line
G92 E0 ; Reset Extruder
G1 Z2.0 F3000 ; Move Z Axis up little to prevent scratching of Heat Bed
G1 X5 Y20 Z0.3 F5000.0 ; Move over to prevent blob squish
G92 E0
G92 E0
G1 F2700 E-5
;LAYER_COUNT:51
;LAYER:0
M107
G0 F6000 X107.662 Y86.695 Z0.32
;TYPE:SKIRT
G1 F2700 E0
G1 F1200 X108.32 Y85.942 E0.13304
G1 X109.036 Y85.245 E0.26598
G1 X109.806 Y84.607 E0.39901
G1 X110.624 Y84.032 E0.53204
G1 X111.486 Y83.525 E0.66508
G1 X112.385 Y83.088 E0.79807
G1 X113.316 Y82.724 E0.93106
G1 X114.274 Y82.436 E1.06415
G1 X115.251 Y82.226 E1.1971
G1 X116.242 Y82.094 E1.33011
G1 X116.825 Y82.054 E1.40785
G1 X117.309 Y82.032 E1.47231
G1 X117.811 Y82.017 E1.53912
G1 X118.082 Y82.013 E1.57518
G1 X118.413 Y82.012 E1.61922
G1 X118.714 Y82.015 E1.65927
G1 X119.142 Y82.024 E1.71622
G1 X120.14 Y82.085 E1.84924
G1 X121.13 Y82.225 E1.98226
G1 X122.105 Y82.444 E2.11521
G1 X123.06 Y82.741 E2.24827
G1 X123.988 Y83.113 E2.38128
G1 X124.883 Y83.558 E2.51425
G1 X125.74 Y84.072 E2.64721
G1 X126.553 Y84.654 E2.78023
G1 X127.317 Y85.299 E2.91325
G1 X128.028 Y86.003 E3.04636
G1 X128.679 Y86.761 E3.1793
G1 X129.268 Y87.57 E3.31243
G1 X129.79 Y88.422 E3.44536
G1 X130.138 Y89.092 E3.54581
G1 X130.401 Y89.64 E3.62667
G1 X131.167 Y91.296 E3.86942
G1 X132.275 Y93.524 E4.20046
G1 X133.429 Y95.69 E4.52697
G1 X134.667 Y97.86 E4.85935
G1 X135.94 Y99.951 E5.18504
G1 X137.278 Y102.019 E5.51273
G1 X138.691 Y104.07 E5.84408
G1 X140.16 Y106.079 E6.17519
G1 X141.674 Y108.032 E6.50395
G1 X143.245 Y109.943 E6.83307
G1 X144.86 Y111.8 E7.16049
G1 X146.535 Y113.618 E7.48937
G1 X148.244 Y115.372 E7.81517
G1 X150.179 Y117.222 E8.17133
G1 X150.93 Y117.951 E8.31057
G1 X151.619 Y118.675 E8.44354
G1 X152.248 Y119.453 E8.57664
G1 X152.813 Y120.278 E8.70967
G1 X153.31 Y121.145 E8.84263
G1 X153.736 Y122.05 E8.9757
G1 X154.089 Y122.985 E9.10867
G1 X154.365 Y123.946 E9.24169
G1 X154.564 Y124.926 E9.37473
G1 X154.684 Y125.918 E9.50766
G1 X154.724 Y126.917 E9.64068
G1 X154.684 Y127.916 E9.77369
G1 X154.565 Y128.909 E9.90675
G1 X154.366 Y129.889 E10.03979
G1 X154.177 Y130.576 E10.13458
G1 X154.073 Y130.916 E10.18188
G1 X153.965 Y131.252 E10.22884
G1 X153.812 Y131.706 E10.29258
G1 X153.667 Y132.116 E10.35043
G1 X153.575 Y132.365 E10.38575
G1 X153.4 Y132.819 E10.45048
G1 X153.003 Y133.737 E10.58354
G1 X152.534 Y134.62 E10.71656
G1 X151.996 Y135.463 E10.84961
G1 X151.393 Y136.26 E10.98257
G1 X150.728 Y137.006 E11.11553
G1 X150.005 Y137.697 E11.24858
G1 X149.229 Y138.328 E11.38165
G1 X148.406 Y138.895 E11.51461
G1 X147.54 Y139.394 E11.64758
G1 X146.636 Y139.822 E11.78065
G1 X145.702 Y140.177 E11.91358
G1 X144.742 Y140.456 E12.04658
G1 X143.762 Y140.658 E12.1797
G1 X142.77 Y140.78 E12.31267
G1 X141.771 Y140.823 E12.4457
G1 X141.194 Y140.811 E12.52248
G1 X140.827 Y140.795 E12.57136
G1 X138.236 Y140.721 E12.9162
G1 X135.763 Y140.719 E13.24521
G1 X133.282 Y140.788 E13.57542
G1 X130.849 Y140.925 E13.89962
G1 X128.355 Y141.135 E14.23259
G1 X125.874 Y141.416 E14.56478
G1 X123.469 Y141.757 E14.88794
G1 X120.984 Y142.181 E15.22332
G1 X118.581 Y142.662 E15.54936
G1 X116.201 Y143.207 E15.87419
G1 X113.773 Y143.838 E16.20795
G1 X111.383 Y144.532 E16.53905
G1 X109.061 Y145.277 E16.86348
G1 X106.681 Y146.115 E17.19917
G1 X104.413 Y146.987 E17.52244
G1 X102.122 Y147.944 E17.85276
G1 X100.141 Y148.846 E18.14235
G1 X99.442 Y149.156 E18.24408
G1 X98.512 Y149.524 E18.37714
G1 X97.556 Y149.817 E18.51016
G1 X96.58 Y150.033 E18.64315
G1 X95.59 Y150.17 E18.77612
G1 X94.592 Y150.227 E18.90911
G1 X93.592 Y150.205 E19.04218
G1 X92.597 Y150.102 E19.17527
G1 X91.614 Y149.921 E19.30824
G1 X90.649 Y149.661 E19.4412
G1 X89.707 Y149.325 E19.57426
G1 X88.795 Y148.915 E19.70729
G1 X87.919 Y148.433 E19.84031
G1 X87.084 Y147.883 E19.97334
G1 X86.296 Y147.268 E20.10632
G1 X85.559 Y146.592 E20.23937
G1 X84.879 Y145.859 E20.37239
G1 X84.459 Y145.342 E20.46101
G1 X84.168 Y144.963 E20.52458
G1 X83.829 Y144.506 E20.60028
G1 X83.559 Y144.128 E20.66208
G1 X83.401 Y143.9 E20.69899
G1 X83.152 Y143.532 E20.7581
G1 X82.626 Y142.682 E20.89109
G1 X82.168 Y141.793 E21.02413
G1 X81.784 Y140.87 E21.15713
G1 X81.474 Y139.92 E21.29008
G1 X81.242 Y138.947 E21.42316
G1 X81.087 Y137.959 E21.55621
G1 X81.013 Y136.962 E21.68921
G1 X81.018 Y135.963 E21.82212
G1 X81.103 Y134.966 E21.95525
G1 X81.267 Y133.98 E22.08823
G1 X81.51 Y133.01 E22.22126
G1 X81.829 Y132.063 E22.35421
G1 X82.223 Y131.144 E22.48724
G1 X82.69 Y130.26 E22.62025
G1 X83.225 Y129.415 E22.7533
G1 X83.826 Y128.616 E22.88632
G1 X84.181 Y128.202 E22.95887
G1 X84.452 Y127.902 E23.01266
G1 X86.003 Y126.234 E23.31568
G1 X87.621 Y124.394 E23.64166
G1 X89.214 Y122.475 E23.97347
G1 X90.731 Y120.539 E24.30069
G1 X92.217 Y118.528 E24.63335
G1 X93.62 Y116.511 E24.96023
G1 X94.968 Y114.455 E25.28731
G1 X96.287 Y112.309 E25.62243
G1 X97.502 Y110.203 E25.9459
G1 X98.689 Y108.002 E26.27859
G1 X99.799 Y105.8 E26.60666
G1 X100.846 Y103.563 E26.93525
G1 X101.837 Y101.283 E27.266
G1 X102.754 Y99 E27.59332
G1 X103.616 Y96.664 E27.92458
G1 X104.398 Y94.344 E28.2503
G1 X105.254 Y91.529 E28.64174
G1 X105.375 Y91.104 E28.70053
G1 X105.688 Y90.155 E28.83348
G1 X106.076 Y89.233 E28.96656
G1 X106.536 Y88.346 E29.09949
G1 X107.066 Y87.498 E29.23253
G1 X107.662 Y86.695 E29.36557
G0 F6000 X108.565 Y87.171
G1 F1200 X109.209 Y86.461 E29.4931
G1 X109.911 Y85.808 E29.62066
G1 X110.665 Y85.215 E29.74827
G1 X111.465 Y84.687 E29.8758
G1 X112.307 Y84.227 E30.00345
G1 X113.184 Y83.839 E30.13103
G1 X114.09 Y83.526 E30.25856
G1 X115.019 Y83.289 E30.38611
G1 X115.965 Y83.13 E30.51373
G1 X116.871 Y83.053 E30.6347
G1 X117.355 Y83.031 E30.69916
G1 X117.836 Y83.017 E30.76318
G1 X118.085 Y83.013 E30.79631
G1 X118.416 Y83.012 E30.84035
G1 X118.693 Y83.015 E30.8772
G1 X119.121 Y83.024 E30.93415
G1 X120.078 Y83.084 E31.06172
G1 X121.027 Y83.223 E31.18933
G1 X121.96 Y83.442 E31.31683
G1 X122.873 Y83.737 E31.44448
G1 X123.757 Y84.107 E31.57197
G1 X124.608 Y84.55 E31.69961
G1 X125.419 Y85.062 E31.82721
G1 X126.184 Y85.639 E31.95469
G1 X126.899 Y86.279 E32.08235
G1 X127.558 Y86.976 E32.20997
G1 X128.156 Y87.725 E32.33748
G1 X128.69 Y88.522 E32.46511
G1 X129.238 Y89.526 E32.61729
G1 X129.414 Y89.891 E32.6712
G1 X130.258 Y91.715 E32.93858
G1 X131.385 Y93.979 E33.27504
G1 X132.557 Y96.179 E33.60667
G1 X133.801 Y98.36 E33.94071
G1 X135.084 Y100.468 E34.26902
G1 X136.463 Y102.599 E34.60672
G1 X137.881 Y104.657 E34.93921
G1 X139.365 Y106.688 E35.27386
G1 X140.859 Y108.615 E35.59826
G1 X142.478 Y110.584 E35.9374
G1 X144.129 Y112.482 E36.27207
G1 X145.824 Y114.322 E36.6049
G1 X147.529 Y116.073 E36.93005
G1 X149.483 Y117.939 E37.28951
G1 X150.234 Y118.668 E37.42875
G1 X150.894 Y119.364 E37.55636
G1 X151.493 Y120.113 E37.68396
G1 X152.028 Y120.909 E37.81155
G1 X152.495 Y121.747 E37.93919
G1 X152.89 Y122.62 E38.06667
G1 X153.211 Y123.524 E38.19429
G1 X153.456 Y124.451 E38.32185
G1 X153.622 Y125.395 E38.44937
G1 X153.71 Y126.35 E38.57696
G1 X153.717 Y127.309 E38.70455
G1 X153.645 Y128.265 E38.8321
G1 X153.493 Y129.212 E38.9597
G1 X153.221 Y130.284 E39.10684
G1 X153.117 Y130.624 E39.15414
G1 X153.018 Y130.933 E39.19731
G1 X152.865 Y131.387 E39.26105
G1 X152.727 Y131.777 E39.31609
G1 X152.466 Y132.459 E39.41324
G1 X152.085 Y133.339 E39.54082
G1 X151.631 Y134.184 E39.66843
G1 X151.108 Y134.988 E39.79604
G1 X150.52 Y135.745 E39.92356
G1 X149.871 Y136.451 E40.05115
G1 X149.166 Y137.101 E40.17872
G1 X148.409 Y137.689 E40.30624
G1 X147.605 Y138.213 E40.43392
G1 X146.761 Y138.667 E40.56142
G1 X145.881 Y139.05 E40.68911
G1 X144.973 Y139.358 E40.81667
G1 X144.043 Y139.589 E40.94415
G1 X143.096 Y139.742 E41.07178
G1 X142.14 Y139.816 E41.19934
G1 X141.238 Y139.812 E41.31935
G1 X140.833 Y139.794 E41.37328
G1 X138.266 Y139.721 E41.71494
G1 X135.77 Y139.719 E42.04701
G1 X133.233 Y139.79 E42.38466
G1 X130.742 Y139.929 E42.71658
G1 X128.264 Y140.139 E43.04744
G1 X125.767 Y140.421 E43.38175
G1 X123.302 Y140.771 E43.71299
G1 X120.829 Y141.193 E44.04675
G1 X118.345 Y141.69 E44.38377
G1 X115.961 Y142.236 E44.70915
G1 X113.526 Y142.869 E45.04387
G1 X111.083 Y143.578 E45.3823
G1 X108.707 Y144.34 E45.71427
G1 X106.38 Y145.16 E46.04251
G1 X104.028 Y146.064 E46.37774
G1 X101.72 Y147.029 E46.71056
G1 X99.735 Y147.932 E47.00068
G1 X99.036 Y148.242 E47.10241
G1 X98.144 Y148.593 E47.22994
G1 X97.226 Y148.87 E47.35751
G1 X96.288 Y149.069 E47.48508
G1 X95.336 Y149.189 E47.61274
G1 X94.378 Y149.229 E47.7403
G1 X93.42 Y149.189 E47.86787
G1 X92.469 Y149.07 E47.99537
G1 X91.53 Y148.872 E48.12305
G1 X90.612 Y148.596 E48.25058
G1 X89.72 Y148.245 E48.37811
G1 X88.86 Y147.821 E48.50567
G1 X88.038 Y147.326 E48.63333
G1 X87.26 Y146.765 E48.76094
G1 X86.532 Y146.141 E48.8885
G1 X85.859 Y145.458 E49.01607
G1 X85.253 Y144.733 E49.14178
G1 X84.962 Y144.354 E49.20535
G1 X84.815 Y144.159 E49.23784
G1 X84.524 Y143.76 E49.30354
G1 X84.229 Y143.34 E49.37182
G1 X83.98 Y142.972 E49.43094
G1 X83.477 Y142.156 E49.55847
G1 X83.043 Y141.301 E49.68603
G1 X82.681 Y140.412 E49.81373
G1 X82.395 Y139.497 E49.94127
G1 X82.186 Y138.561 E50.06887
G1 X82.056 Y137.611 E50.19643
G1 X82.006 Y136.653 E50.32406
G1 X82.035 Y135.695 E50.45157
G1 X82.144 Y134.742 E50.57919
G1 X82.333 Y133.802 E50.70675
G1 X82.598 Y132.88 E50.83438
G1 X82.94 Y131.984 E50.96197
G1 X83.355 Y131.12 E51.08949
G1 X83.841 Y130.293 E51.2171
G1 X84.394 Y129.51 E51.34464
G1 X84.927 Y128.868 E51.45565
G1 X85.184 Y128.583 E51.5067
G1 X86.745 Y126.905 E51.81161
G1 X88.385 Y125.039 E52.14211
G1 X89.994 Y123.101 E52.47723
G1 X91.532 Y121.138 E52.809
G1 X93.026 Y119.116 E53.14347
G1 X94.44 Y117.084 E53.47282
G1 X95.824 Y114.972 E53.80876
G1 X97.142 Y112.829 E54.14347
G1 X98.376 Y110.689 E54.47212
G1 X99.575 Y108.466 E54.80814
G1 X100.704 Y106.226 E55.14187
G1 X101.754 Y103.983 E55.47136
G1 X102.761 Y101.665 E55.80759
G1 X103.695 Y99.342 E56.14069
G1 X104.554 Y97.014 E56.47082
G1 X105.351 Y94.648 E56.80297
G1 X106.201 Y91.851 E57.19189
G1 X106.336 Y91.379 E57.2572
G1 X106.638 Y90.469 E57.38476
G1 X107.015 Y89.587 E57.51237
G1 X107.464 Y88.74 E57.63991
G1 X107.981 Y87.932 E57.76753
G1 X108.565 Y87.171 E57.89515
G0 F6000 X109.465 Y87.657
G1 F1200 X110.095 Y86.992 E58.01702
G1 X110.781 Y86.384 E58.13897
G1 X111.517 Y85.839 E58.26081
G1 X112.298 Y85.36 E58.3827
G1 X113.118 Y84.951 E58.50461
G1 X113.97 Y84.614 E58.62651
G1 X114.849 Y84.354 E58.74846
G1 X115.747 Y84.171 E58.87039
G1 X116.916 Y84.052 E59.02671
G1 X117.618 Y84.022 E59.12019
G1 X118.088 Y84.013 E59.18273
G1 X118.419 Y84.012 E59.22677
G1 X118.672 Y84.014 E59.26043
G1 X119.1 Y84.023 E59.31739
G1 X120.014 Y84.083 E59.43925
G1 X120.92 Y84.221 E59.56117
G1 X121.81 Y84.438 E59.68305
G1 X122.678 Y84.732 E59.80497
G1 X123.517 Y85.101 E59.92691
G1 X124.32 Y85.541 E60.04873
G1 X125.083 Y86.05 E60.17075
G1 X125.798 Y86.623 E60.29265
G1 X126.46 Y87.256 E60.41451
G1 X127.064 Y87.945 E60.53641
G1 X127.607 Y88.683 E60.65831
G1 X128.082 Y89.466 E60.78015
G1 X128.337 Y89.96 E60.85411
G1 X128.586 Y90.48 E60.93081
G1 X129.37 Y92.176 E61.17939
G1 X130.493 Y94.433 E61.51478
G1 X131.671 Y96.644 E61.84808
G1 X132.942 Y98.872 E62.18933
G1 X134.244 Y101.011 E62.52248
G1 X135.626 Y103.148 E62.86106
G1 X137.059 Y105.226 E63.19688
G1 X138.559 Y107.279 E63.53515
G1 X140.109 Y109.278 E63.87168
G1 X141.724 Y111.243 E64.21007
G1 X143.363 Y113.127 E64.54229
G1 X145.097 Y115.009 E64.88274
G1 X146.829 Y116.787 E65.21297
G1 X148.786 Y118.657 E65.57309
G1 X149.537 Y119.386 E65.71233
G1 X150.166 Y120.052 E65.83421
G1 X150.735 Y120.771 E65.95619
G1 X151.239 Y121.536 E66.07807
G1 X151.674 Y122.343 E66.20004
G1 X152.037 Y123.184 E66.3219
G1 X152.325 Y124.054 E66.44383
G1 X152.537 Y124.945 E66.56567
G1 X152.67 Y125.852 E66.68763
G1 X152.723 Y126.767 E66.80957
G1 X152.696 Y127.682 E66.93135
G1 X152.59 Y128.593 E67.05337
G1 X152.405 Y129.49 E67.17522
G1 X152.265 Y129.991 E67.24443
G1 X152.161 Y130.331 E67.29173
G1 X152.07 Y130.613 E67.33115
G1 X151.917 Y131.067 E67.39489
G1 X151.786 Y131.437 E67.44711
G1 X151.708 Y131.646 E67.47679
G1 X151.533 Y132.1 E67.54152
G1 X151.167 Y132.939 E67.6633
G1 X150.728 Y133.744 E67.78529
G1 X150.222 Y134.507 E67.90709
G1 X149.65 Y135.224 E68.02912
G1 X149.018 Y135.887 E68.15098
G1 X148.331 Y136.493 E68.27285
G1 X147.594 Y137.037 E68.39472
G1 X146.812 Y137.515 E68.51666
G1 X145.991 Y137.922 E68.63857
G1 X145.138 Y138.257 E68.76049
G1 X144.259 Y138.515 E68.88236
G1 X143.361 Y138.697 E69.00426
G1 X142.45 Y138.799 E69.12622
G1 X141.281 Y138.813 E69.28176
G1 X140.905 Y138.797 E69.33183
G1 X138.259 Y138.721 E69.684
G1 X135.743 Y138.719 E70.01873
G1 X133.221 Y138.79 E70.35439
G1 X130.673 Y138.932 E70.6939
G1 X128.14 Y139.146 E71.03209
G1 X125.652 Y139.428 E71.36522
G1 X123.14 Y139.784 E71.70275
G1 X120.641 Y140.21 E72.04002
G1 X118.169 Y140.705 E72.37542
G1 X115.704 Y141.27 E72.71187
G1 X113.248 Y141.908 E73.04946
G1 X110.816 Y142.614 E73.38638
G1 X108.386 Y143.393 E73.72587
G1 X106.036 Y144.221 E74.05736
G1 X103.631 Y145.146 E74.40017
G1 X101.341 Y146.103 E74.73036
G1 X99.33 Y147.017 E75.02425
G1 X98.631 Y147.327 E75.12598
G1 X97.778 Y147.662 E75.2479
G1 X96.899 Y147.921 E75.36981
G1 X96.001 Y148.102 E75.49168
G1 X95.09 Y148.205 E75.61366
G1 X94.174 Y148.227 E75.73556
G1 X93.26 Y148.17 E75.85739
G1 X92.354 Y148.033 E75.9793
G1 X91.463 Y147.817 E76.10127
G1 X90.594 Y147.525 E76.22323
G1 X89.755 Y147.158 E76.34507
G1 X88.95 Y146.72 E76.46699
G1 X88.187 Y146.213 E76.58887
G1 X87.471 Y145.641 E76.71079
G1 X86.808 Y145.009 E76.83265
G1 X86.046 Y144.124 E76.98802
G1 X85.755 Y143.745 E77.05159
G1 X85.621 Y143.567 E77.08123
G1 X85.34 Y143.181 E77.14475
G1 X85.058 Y142.779 E77.21008
G1 X84.809 Y142.411 E77.2692
G1 X84.329 Y141.631 E77.39104
G1 X83.919 Y140.811 E77.51301
G1 X83.582 Y139.959 E77.63491
G1 X83.32 Y139.081 E77.75681
G1 X83.136 Y138.183 E77.87876
G1 X83.032 Y137.273 E78.00062
G1 X83.006 Y136.357 E78.12253
G1 X83.061 Y135.442 E78.24448
G1 X83.196 Y134.536 E78.36635
G1 X83.408 Y133.645 E78.4882
G1 X83.698 Y132.775 E78.6102
G1 X84.062 Y131.935 E78.732
G1 X84.499 Y131.129 E78.85397
G1 X85.004 Y130.364 E78.97593
G1 X85.673 Y129.534 E79.11775
G1 X85.916 Y129.264 E79.16608
G1 X87.484 Y127.578 E79.4724
G1 X89.149 Y125.686 E79.8077
G1 X90.776 Y123.724 E80.1468
G1 X92.336 Y121.734 E80.4832
G1 X93.831 Y119.71 E80.81797
G1 X95.277 Y117.632 E81.15477
G1 X96.665 Y115.514 E81.49167
G1 X97.987 Y113.364 E81.82745
G1 X99.258 Y111.16 E82.16594
G1 X100.461 Y108.929 E82.50315
G1 X101.594 Y106.681 E82.83807
G1 X102.669 Y104.387 E83.17511
G1 X103.691 Y102.034 E83.51641
G1 X104.623 Y99.713 E83.84916
G1 X105.502 Y97.331 E84.18695
G1 X106.304 Y94.952 E84.52095
G1 X107.165 Y92.119 E84.91488
G1 X107.298 Y91.654 E84.97923
G1 X107.588 Y90.785 E85.10111
G1 X107.953 Y89.944 E85.22308
G1 X108.389 Y89.139 E85.34487
G1 X108.895 Y88.374 E85.4669
G1 X109.465 Y87.657 E85.58876
G1 F2700 E80.58876
;MESH:V_2_0TruncatedIcosphereV2_v2_001.stl
G0 F6000 X116.913 Y105.178
G0 X117.269 Y106.302
;TYPE:WALL-OUTER
G1 F2700 E85.58876
G1 F1200 X117.296 Y106.279 E85.59348
G1 X117.303 Y106.276 E85.59449
G1 X117.269 Y106.302 E85.60018
G0 F6000 X117.68 Y106.093
G1 F1200 X118.084 Y105.896 E85.65998
G1 X117.895 Y95.016 E87.10768
G1 X118.395 Y95.008 E87.17421
G1 X118.585 Y105.883 E88.62125
G1 X118.916 Y106.025 E88.66917
G1 X118.874 Y106.011 E88.67506
G1 X118.376 Y105.949 E88.74182
G1 X117.907 Y106.012 E88.80478
G1 X117.68 Y106.093 E88.83684
G1 F2700 E83.83684
G0 F6000 X118.281 Y105.633
G0 X119.105 Y110.098
G0 X119.846 Y110.358
G1 F2700 E88.83684
G0 F6000 X120.349 Y108.256
G1 F1200 X120.34 Y108.366 E88.85153
G1 X120.333 Y108.388 E88.8546
