;FLAVOR:Marlin
;TIME:7050
;Filament used: 11.948m
;Layer height: 0.32
;MINX:28.575
;MINY:44.731
;MINZ:0.32
;MAXX:200.518
;MAXY:192.333
;MAXZ:21.23
;Generated with Cura_SteamEngine 4.13.1
M140 S50
M105
M190 S50
M104 S200
M105
M109 S200
M82 ;absolute extrusion mode
; Ender 3 Custom Start G-code
G92 E0 ; Reset Extruder
G28 ; Home all axes
G1 Z2.0 F3000 ; Move Z Axis up little to prevent scratching of Heat Bed
G1 X0.1 Y20 Z0.3 F5000.0 ; Move to start position
G1 X0.1 Y200.0 Z0.3 F1500.0 E15 ; Draw the first line
G1 X0.4 Y200.0 Z0.3 F5000.0 ; Move to side a little
G1 X0.4 Y20 Z0.3 F1500.0 E30 ; Draw the second line
G92 E0 ; Reset Extruder
G1 Z2.0 F3000 ; Move Z Axis up little to prevent scratching of Heat Bed
G1 X5 Y20 Z0.3 F5000.0 ; Move over to prevent blob squish
G92 E0
G92 E0
G1 F2700 E-5
;LAYER_COUNT:51
;LAYER:0
M107
;MESH:V_2_0TruncatedIcosphereV2_v2_001TruncatedIcosphereV2_v5_001.stl(3)
G0 F6000 X49.802 Y177.07 Z0.32
;TYPE:WALL-INNER
G1 F2700 E0
G1 F1200 X48.738 Y176.272 E0.17694
G1 X48.436 Y175.63 E0.27133
G1 X48.31 Y175.449 E0.30067
G1 X47.765 Y174.809 E0.41251
G1 X47.611 Y174.682 E0.43907
G1 X47.224 Y173.459 E0.60973
G1 X46.851 Y172.143 E0.7917
G1 X46.696 Y170.728 E0.98108
G1 X46.775 Y169.322 E1.16843
G1 X47.087 Y167.94 E1.35692
G1 X47.622 Y166.635 E1.54456
G1 X48.371 Y165.431 E1.73321
G1 X49.303 Y164.373 E1.92079
G1 X50.395 Y163.486 E2.10796
G1 X51.63 Y162.784 E2.29695
G1 X52.917 Y162.315 E2.47919
G1 X54.127 Y161.909 E2.64899
G1 X54.338 Y161.961 E2.6779
G1 X55.294 Y162.036 E2.80548
G1 X56.081 Y161.895 E2.91185
G1 X57.306 Y162.271 E3.08233
G1 X58.689 Y162.758 E3.2774
G1 X59.988 Y163.491 E3.47583
G1 X61.146 Y164.444 E3.67536
G1 X62.113 Y165.579 E3.87373
G1 X62.864 Y166.861 E4.0714
G1 X63.38 Y168.252 E4.26878
G1 X63.651 Y169.731 E4.46883
G1 X63.66 Y171.162 E4.65921
G1 X63.612 Y172.464 E4.83255
G1 X63.503 Y172.629 E4.85886
G1 X63.106 Y173.494 E4.98548
G1 X62.968 Y174.303 E5.09466
G1 X62.175 Y175.334 E5.26771
G1 X61.319 Y176.385 E5.44804
G1 X60.247 Y177.328 E5.63799
G1 X59.046 Y178.069 E5.82573
G1 X57.745 Y178.602 E6.01278
G1 X56.348 Y178.917 E6.20331
G1 X54.949 Y178.994 E6.38971
G1 X53.549 Y178.836 E6.57715
G1 X52.184 Y178.447 E6.76598
G1 X50.902 Y177.838 E6.95481
G1 X49.802 Y177.07 E7.13329
G1 F2700 E2.13329
G0 F6000 X46.486 Y174.782
G0 X44.249 Y175.314
G0 X43.65 Y175.597
G0 X43.139 Y176.035
G0 X42.764 Y176.583
G0 X42.543 Y177.202
G0 X42.49 Y177.861
G0 X42.609 Y178.51
G0 X42.897 Y179.114
G0 X43.327 Y179.617
G0 X43.871 Y179.994
G0 X44.497 Y180.216
G0 X45.157 Y180.269
G0 X45.807 Y180.15
G0 X47.706 Y179.094
;TYPE:WALL-OUTER
G1 F2700 E7.13329
G1 F1200 X47.955 Y178.389 E7.23276
G1 X47.971 Y178.302 E7.24453
G1 X48.028 Y177.57 E7.34221
G1 X47.886 Y176.81 E7.44507
G1 X47.567 Y176.132 E7.54476
G1 X47.517 Y176.06 E7.55642
G1 X47.062 Y175.525 E7.64986
G1 X46.99 Y175.466 E7.66224
G1 X46.455 Y175.097 E7.74871
G1 X46.376 Y175.049 E7.761
G1 X45.679 Y174.801 E7.85943
G1 X45.595 Y174.788 E7.87074
G1 X44.87 Y174.731 E7.96749
G1 X44.11 Y174.871 E8.0703
G1 X43.433 Y175.189 E8.16981
G1 X43.356 Y175.241 E8.18217
G1 X42.793 Y175.724 E8.28086
G1 X42.349 Y176.373 E8.38548
G1 X42.089 Y177.105 E8.48882
G1 X42.027 Y177.858 E8.58934
G1 X42.036 Y177.945 E8.60098
G1 X42.158 Y178.607 E8.69053
G1 X42.183 Y178.69 E8.70207
G1 X42.506 Y179.367 E8.80186
G1 X42.996 Y179.941 E8.90227
G1 X43.063 Y179.996 E8.9138
G1 X43.618 Y180.38 E9.00359
G1 X43.696 Y180.421 E9.01531
G1 X44.401 Y180.67 E9.11478
G1 X45.156 Y180.732 E9.21557
G1 X45.241 Y180.723 E9.22694
G1 X45.919 Y180.598 E9.31866
G1 X46.008 Y180.565 E9.33129
G1 X46.663 Y180.253 E9.42781
G1 X47.232 Y179.767 E9.52736
G1 X47.288 Y179.702 E9.53878
G1 X47.706 Y179.094 E9.63694
G1 F2700 E4.63694
G0 F6000 X46.41 Y179.862
G0 X45.807 Y180.15
G0 X45.157 Y180.269
G0 X44.497 Y180.216
G0 X43.871 Y179.994
G0 X43.327 Y179.617
G0 X42.897 Y179.114
G0 X42.609 Y178.51
G0 X42.49 Y177.861
G0 X42.543 Y177.202
G0 X42.764 Y176.583
G0 X43.139 Y176.035
G0 X43.65 Y175.597
G0 X44.249 Y175.314
G0 X48.019 Y174.407
G0 X47.314 Y172.051
G0 X47.168 Y170.714
G0 X47.243 Y169.386
G0 X47.536 Y168.085
G0 X48.043 Y166.849
G0 X48.748 Y165.715
G0 X49.63 Y164.715
G0 X50.665 Y163.873
G0 X51.827 Y163.213
G0 X54.149 Y162.401
G0 X56.05 Y162.38
G0 X56.346 Y162.469
G0 X56.92 Y161.368
G0 X56.823 Y160.649
G0 X57.323 Y160.044
G1 F2700 E9.63694
G1 F1200 X57.742 Y159.439 E9.73485
G1 X57.781 Y159.365 E9.74598
G1 X58.031 Y158.661 E9.84537
G1 X58.096 Y157.888 E9.94857
G1 X57.961 Y157.143 E10.0493
G1 X57.926 Y157.049 E10.06264
G1 X57.62 Y156.403 E10.15774
G1 X57.141 Y155.837 E10.25639
G1 X57.079 Y155.779 E10.26769
G1 X56.464 Y155.356 E10.36699
G1 X55.758 Y155.103 E10.46677
G1 X55.671 Y155.087 E10.47853
G1 X54.936 Y155.029 E10.57662
G1 X54.171 Y155.17 E10.68011
G1 X53.489 Y155.494 E10.78057
G1 X53.418 Y155.543 E10.79204
G1 X52.903 Y155.981 E10.88199
G1 X52.844 Y156.044 E10.89347
G1 X52.419 Y156.661 E10.99315
G1 X52.169 Y157.366 E11.09266
G1 X52.152 Y157.45 E11.10406
G1 X52.098 Y158.124 E11.19402
G1 X52.098 Y158.209 E11.20533
G1 X52.221 Y158.891 E11.29753
G1 X52.244 Y158.972 E11.30873
G1 X52.554 Y159.626 E11.40502
G1 X52.602 Y159.699 E11.41664
G1 X53.036 Y160.209 E11.50573
G1 X53.099 Y160.272 E11.51759
G1 X53.7 Y160.686 E11.61468
G1 X53.785 Y160.725 E11.62712
G1 X54.407 Y160.948 E11.71503
G1 X54.499 Y160.971 E11.72765
G1 X55.244 Y161.029 E11.82706
G1 X55.941 Y160.904 E11.92127
G1 X56.033 Y160.881 E11.93389
G1 X56.691 Y160.569 E12.03077
G1 X56.764 Y160.521 E12.04239
G1 X57.323 Y160.044 E12.14016
G0 F6000 X57.547 Y162.46
G1 F2700 E7.14016
G0 F6000 X58.476 Y163.224
G0 X57.709 Y167.386
G0 X57.943 Y169.925
G0 X57.919 Y172.712
;TYPE:WALL-INNER
G1 F2700 E12.14016
G1 F1200 X58.399 Y171.929 E12.26234
G1 X58.658 Y171.051 E12.38413
G1 X58.683 Y170.134 E12.50617
G1 X58.469 Y169.241 E12.62834
G1 X58.031 Y168.434 E12.7505
G1 X57.398 Y167.771 E12.87245
G1 X56.617 Y167.292 E12.99434
G1 X55.739 Y167.032 E13.11617
G1 X54.822 Y167.007 E13.23821
G1 X53.929 Y167.222 E13.36041
G1 X53.124 Y167.659 E13.48227
G1 X52.458 Y168.29 E13.60433
G1 X51.98 Y169.072 E13.72626
G1 X51.719 Y169.952 E13.84838
G1 X51.696 Y170.869 E13.97042
G1 X51.909 Y171.761 E14.09243
G1 X52.347 Y172.564 E14.21412
G1 X52.976 Y173.23 E14.33599
G1 X53.76 Y173.711 E14.45836
G1 X54.639 Y173.97 E14.58027
G1 X55.556 Y173.995 E14.70232
G1 X56.449 Y173.78 E14.82452
G1 X57.253 Y173.343 E14.94626
G1 X57.919 Y172.712 E15.06832
G0 F6000 X57.374 Y172.331
G0 X57.135 Y172.077
;TYPE:WALL-OUTER
G1 F1200 X57.477 Y171.519 E15.15539
G1 X57.662 Y170.893 E15.24224
G1 X57.68 Y170.239 E15.32928
G1 X57.527 Y169.603 E15.4163
G1 X57.215 Y169.028 E15.50334
G1 X56.764 Y168.555 E15.59029
G1 X56.207 Y168.213 E15.67724
G1 X55.581 Y168.028 E15.76409
G1 X54.927 Y168.01 E15.85113
G1 X54.291 Y168.163 E15.93816
G1 X53.717 Y168.475 E16.02508
G1 X53.242 Y168.925 E16.11213
G1 X52.901 Y169.482 E16.19901
G1 X52.715 Y170.109 E16.28602
G1 X52.699 Y170.763 E16.37306
G1 X52.851 Y171.399 E16.46005
G1 X53.163 Y171.972 E16.54685
G1 X53.612 Y172.447 E16.63381
G1 X54.17 Y172.789 E16.72088
G1 X54.797 Y172.974 E16.80786
G1 X55.451 Y172.992 E16.8949
G1 X56.087 Y172.839 E16.98192
G1 X56.66 Y172.527 E17.06873
G1 X57.135 Y172.077 E17.15578
G0 F6000 X57.989 Y172.769
G1 F2700 E12.15578
G0 F6000 X58.851 Y172.13
G0 X56.405 Y171.041
G0 X63.347 Y177.296
G0 X63.38 Y176.013
G0 X66.192 Y177.104
G0 X66.85 Y177.216
G0 X67.5 Y177.155
G0 X69.486 Y176.272
G1 F2700 E17.15578
G1 F1200 X69.81 Y175.567 E17.259
G1 X69.933 Y174.847 E17.35618
G1 X69.941 Y174.76 E17.3678
G1 X69.876 Y174.066 E17.46053
G1 X69.86 Y173.981 E17.47204
G1 X69.609 Y173.306 E17.56785
G1 X69.57 Y173.233 E17.57886
G1 X69.174 Y172.678 E17.66957
G1 X69.12 Y172.614 E17.68071
G1 X68.536 Y172.132 E17.78145
G1 X67.83 Y171.807 E17.88485
G1 X67.116 Y171.686 E17.9812
G1 X67.032 Y171.676 E17.99245
G1 X66.296 Y171.746 E18.09081
G1 X66.215 Y171.769 E18.10201
G1 X65.586 Y172.002 E18.19125
G1 X65.509 Y172.04 E18.20268
G1 X64.914 Y172.463 E18.2998
G1 X64.85 Y172.53 E18.31213
G1 X64.432 Y173.036 E18.39944
G1 X64.38 Y173.115 E18.41203
G1 X64.07 Y173.792 E18.51109
G1 X63.952 Y174.481 E18.60409
G1 X63.939 Y174.576 E18.61685
G1 X64.007 Y175.316 E18.71571
G1 X64.031 Y175.402 E18.72759
G1 X64.26 Y176.02 E18.81527
G1 X64.296 Y176.1 E18.82694
G1 X64.722 Y176.698 E18.92462
G1 X64.78 Y176.756 E18.93554
G1 X65.346 Y177.223 E19.03316
G1 X66.053 Y177.547 E19.13663
G1 X66.77 Y177.67 E19.23341
G1 X66.854 Y177.678 E19.24463
G1 X67.573 Y177.611 E19.34071
G1 X67.672 Y177.583 E19.35439
G1 X68.32 Y177.342 E19.44637
G1 X68.394 Y177.299 E19.45776
G1 X68.949 Y176.906 E19.54823
G1 X69.013 Y176.846 E19.55991
G1 X69.486 Y176.272 E19.65886
G1 F2700 E14.65886
G0 F6000 X78.159 Y178.778
G1 F2700 E19.65886
G1 F1200 X70.041 Y175.984 E20.80106
G1 X69.779 Y176.35 E20.86094
G1 X69.312 Y176.969 E20.9641
G1 X69.297 Y176.983 E20.96683
G1 X68.679 Y177.481 E21.07242
G1 X67.941 Y177.819 E21.18041
G1 X67.14 Y177.968 E21.28881
G1 X66.336 Y177.919 E21.39597
G1 X65.556 Y177.671 E21.50486
G1 X64.869 Y177.245 E21.61241
G1 X64.319 Y176.677 E21.71759
G1 X64.3 Y176.652 E21.72177
G1 X63.924 Y175.998 E21.82214
G1 X63.514 Y175.234 E21.93749
G1 X62.968 Y175.944 E22.05665
G1 X62.062 Y177.056 E22.24748
G1 X62.022 Y177.098 E22.25519
G1 X60.843 Y178.135 E22.46409
G1 X59.503 Y178.962 E22.67358
G1 X58.042 Y179.561 E22.88366
G1 X56.492 Y179.91 E23.09503
G1 X54.931 Y179.996 E23.30302
G1 X54.908 Y179.996 E23.30608
G1 X53.355 Y179.821 E23.514
G1 X51.833 Y179.387 E23.72456
G1 X50.422 Y178.717 E23.93237
G1 X50.363 Y178.681 E23.94156
G1 X49.211 Y177.877 E24.12846
G1 X48.482 Y177.33 E24.24972
G1 X48.285 Y178.198 E24.36813
G1 X48.112 Y178.897 E24.46393
G1 X48.094 Y178.937 E24.46977
G1 X47.741 Y179.606 E24.5704
G1 X47.73 Y179.622 E24.57299
G1 X47.201 Y180.213 E24.67851
G1 X46.55 Y180.657 E24.78335
G1 X45.79 Y180.94 E24.89124
G1 X44.997 Y181.03 E24.99742
G1 X44.211 Y180.928 E25.10286
G1 X43.468 Y180.637 E25.20902
G1 X42.47 Y179.929 E25.37182
G1 X31.192 Y188.124 E27.22653
G1 X30.9 Y187.718 E27.29307
G1 X42.182 Y179.52 E29.14845
G1 X42.037 Y179.124 E29.20455
G1 X41.788 Y178.35 E29.31273
G1 X41.734 Y177.539 E29.42086
G1 X41.879 Y176.749 E29.52772
G1 X42.218 Y176.004 E29.63661
G1 X42.721 Y175.374 E29.74386
G1 X43.37 Y174.881 E29.8523
G1 X44.114 Y174.563 E29.95994
G1 X44.912 Y174.436 E30.06744
G1 X44.938 Y174.435 E30.0709
G1 X45.676 Y174.501 E30.16948
G1 X46.544 Y174.624 E30.28611
G1 X46.266 Y173.746 E30.40864
G1 X45.877 Y172.372 E30.59862
G1 X45.865 Y172.321 E30.60559
G1 X45.693 Y170.757 E30.81492
G1 X45.782 Y169.177 E31.02546
G1 X46.125 Y167.656 E31.23289
G1 X46.137 Y167.621 E31.23782
G1 X46.722 Y166.194 E31.443
G1 X46.738 Y166.164 E31.44752
G1 X47.565 Y164.833 E31.656
G1 X48.601 Y163.657 E31.8645
G1 X48.622 Y163.638 E31.86827
G1 X49.829 Y162.658 E32.07512
G1 X51.187 Y161.886 E32.28294
G1 X51.244 Y161.86 E32.29127
G1 X52.575 Y161.375 E32.47974
G1 X53.421 Y161.091 E32.59847
G1 X52.363 Y159.874 E32.81301
G1 X51.996 Y159.157 E32.92017
G1 X51.816 Y158.392 E33.02472
G1 X51.826 Y157.587 E33.13183
G1 X52.028 Y156.813 E33.23825
G1 X52.406 Y156.119 E33.34339
G1 X52.943 Y155.528 E33.44962
G1 X53.615 Y155.081 E33.557
G1 X54.359 Y154.814 E33.66216
G1 X54.76 Y154.687 E33.71812
G1 X54.611 Y146.092 E34.86178
G1 X55.111 Y146.084 E34.92831
G1 X55.261 Y154.679 E36.07196
G1 X55.668 Y154.781 E36.12779
G1 X56.436 Y155.017 E36.23468
G1 X57.134 Y155.439 E36.34319
G1 X57.705 Y156.016 E36.45119
G1 X58.115 Y156.714 E36.55889
G1 X58.347 Y157.498 E36.66766
G1 X58.381 Y158.306 E36.77525
G1 X58.216 Y159.092 E36.8821
G1 X57.864 Y159.816 E36.98921
G1 X57.77 Y159.931 E37.00897
G1 X56.808 Y161.072 E37.20752
G1 X57.623 Y161.322 E37.32093
G1 X59.078 Y161.835 E37.52619
G1 X59.114 Y161.85 E37.53138
G1 X60.54 Y162.654 E37.74917
G1 X60.565 Y162.67 E37.75312
G1 X61.838 Y163.718 E37.97249
G1 X61.861 Y163.741 E37.97681
G1 X62.922 Y164.986 E38.19444
G1 X62.94 Y165.012 E38.19864
G1 X63.773 Y166.434 E38.4179
G1 X64.348 Y167.985 E38.63797
G1 X64.646 Y169.61 E38.85776
G1 X64.651 Y169.681 E38.86723
G1 X64.66 Y171.17 E39.06533
G1 X64.626 Y172.09 E39.18781
G1 X65.427 Y171.751 E39.30353
G1 X66.122 Y171.483 E39.40263
G1 X66.151 Y171.476 E39.4066
G1 X66.927 Y171.379 E39.51064
G1 X67.711 Y171.472 E39.61568
G1 X68.468 Y171.757 E39.72329
G1 X69.134 Y172.216 E39.8309
G1 X69.663 Y172.817 E39.93742
G1 X70.029 Y173.52 E40.04286
G1 X70.217 Y174.296 E40.14909
G1 X70.213 Y175.065 E40.2514
G1 X70.194 Y175.507 E40.31026
G1 X78.324 Y178.307 E41.45423
G1 X78.159 Y178.778 E41.52062
G1 F2700 E36.52062
G0 F6000 X70.222 Y176.54
G0 X67.5 Y177.155
G0 X66.85 Y177.216
G0 X66.192 Y177.104
G0 X65.708 Y176.882
G0 X63.901 Y175.402
G0 X63.733 Y175.106
G0 X63.571 Y174.772
G0 X62.492 Y174.248
G1 F2700 E41.52062
G0 F6000 X62.033 Y173.895
;TYPE:SKIN
G1 F1200 X61.401 Y174.716 E41.65846
G1 X60.602 Y175.698 E41.82689
G1 X59.659 Y176.527 E41.99393
G1 X58.593 Y177.184 E42.16053
G1 X57.446 Y177.655 E42.32549
G1 X56.208 Y177.933 E42.4943
G1 X54.982 Y178.002 E42.65766
G1 X53.739 Y177.861 E42.82409
G1 X52.54 Y177.519 E42.98997
G1 X51.396 Y176.976 E43.15844
G1 X50.388 Y176.272 E43.32202
G1 X49.528 Y175.627 E43.46503
G1 X49.296 Y175.133 E43.53764
G1 X49.095 Y174.844 E43.58448
G1 X48.469 Y174.109 E43.71292
G1 X48.168 Y173.16 E43.84538
G1 X47.826 Y171.954 E44.01215
G1 X47.688 Y170.701 E44.17986
G1 X47.759 Y169.464 E44.3447
G1 X48.035 Y168.238 E44.51189
G1 X48.506 Y167.089 E44.6771
G1 X49.168 Y166.025 E44.84381
G1 X49.995 Y165.085 E45.01038
G1 X50.953 Y164.308 E45.17449
G1 X52.049 Y163.685 E45.34221
G1 X53.244 Y163.25 E45.5114
G1 X54.171 Y162.939 E45.64148
G1 X55.344 Y163.032 E45.79803
G1 X56.019 Y162.911 E45.88926
G1 X56.985 Y163.207 E46.02368
G1 X58.279 Y163.663 E46.20621
G1 X59.428 Y164.312 E46.38177
G1 X60.447 Y165.15 E46.5573
G1 X61.305 Y166.157 E46.7333
G1 X61.965 Y167.285 E46.90717
G1 X62.422 Y168.515 E47.08174
G1 X62.661 Y169.825 E47.2589
G1 X62.67 Y171.126 E47.43199
G1 X62.632 Y172.154 E47.56885
G1 X62.152 Y173.199 E47.72184
G1 X62.033 Y173.895 E47.81578
G1 F2700 E42.81578
G0 F6000 X62.492 Y174.248
G0 X62.615 Y173.342
G0 X58.851 Y172.13
G1 F2700 E47.81578
G0 F6000 X59.312 Y172.335
G1 F1200 X59.644 Y171.207 E47.97222
G1 X59.677 Y170.031 E48.12874
G1 X59.401 Y168.883 E48.28582
G1 X58.838 Y167.846 E48.4428
G1 X58.025 Y166.995 E48.59938
G1 X57.023 Y166.379 E48.75587
G1 X55.896 Y166.046 E48.91221
G1 X54.717 Y166.013 E49.06913
G1 X53.571 Y166.29 E49.22598
G1 X52.538 Y166.851 E49.38237
G1 X51.682 Y167.662 E49.53925
G1 X51.067 Y168.666 E49.69589
G1 X50.733 Y169.796 E49.85265
G1 X50.704 Y170.974 E50.00942
G1 X50.977 Y172.119 E50.16603
G1 X51.539 Y173.15 E50.32225
G1 X52.346 Y174.006 E50.47876
G1 X53.354 Y174.624 E50.63606
G1 X54.483 Y174.956 E50.79262
G1 X55.661 Y174.989 E50.94941
G1 X56.808 Y174.712 E51.10639
G1 X57.839 Y174.151 E51.26255
G1 X58.695 Y173.341 E51.41933
G1 X59.312 Y172.335 E51.57634
G1 F2700 E46.57634
G0 F6000 X58.777 Y172.097
G0 X57.709 Y167.386
G0 X60.218 Y164.341
G0 X59.815 Y163.969
G0 X58.206 Y163.023
G1 F2700 E51.57634
G0 F6000 X57.88 Y163.946
G1 F1200 X61.728 Y167.794 E52.30033
G0 F6000 X62.646 Y167.455
G0 X63.198 Y169.538
G0 X62.234 Y169.714
G1 F1200 X55.864 Y163.344 E53.49883
G0 F6000 X55.692 Y162.381
G0 X54.545 Y162.39
G0 X54.468 Y163.362
G1 F1200 X57.085 Y165.979 E53.99122
G0 F6000 X56.786 Y166.913
G0 X55.292 Y166.609
G0 X55.319 Y165.628
G1 F1200 X53.334 Y163.642 E54.36478
G0 F6000 X53 Y162.722
G0 X51.962 Y163.1
G0 X52.296 Y164.019
G1 F1200 X54.039 Y165.762 E54.69272
G0 F6000 X54.269 Y166.718
G0 X53.471 Y167.003
G0 X53.004 Y166.141
G1 F1200 X51.385 Y164.522 E54.99734
G0 F6000 X50.901 Y163.67
G0 X49.96 Y164.368
G0 X50.576 Y165.127
G1 F1200 X52.132 Y166.683 E55.29009
G0 F6000 X52.805 Y167.395
G0 X52.135 Y168.028
G0 X51.405 Y167.37
G1 F1200 X49.867 Y165.832 E55.57946
G0 F6000 X49.134 Y165.185
G0 X48.426 Y166.12
G0 X49.257 Y166.637
G1 F1200 X50.859 Y168.239 E55.88088
G0 F6000 X51.695 Y168.751
G0 X51.411 Y169.545
G0 X50.473 Y169.267
G1 F1200 X48.75 Y167.544 E56.20506
G0 F6000 X47.846 Y167.173
G0 X47.413 Y168.361
G0 X48.368 Y168.577
G1 F1200 X50.315 Y170.523 E56.57129
G0 F6000 X51.293 Y170.548
G0 X51.522 Y171.911
G0 X50.587 Y172.209
