;FLAVOR:Marlin
;TIME:10418
;Filament used: 18.404m
;Layer height: 0.32
;MINX:51.484
;MINY:51.761
;MINZ:0.32
;MAXX:183.517
;MAXY:183.239
;MAXZ:8
;Generated with Cura_SteamEngine 4.13.1
M140 S60
M105
M190 S60
M104 S200
M105
M109 S200
M82 ;absolute extrusion mode
; Ender 3 Custom Start G-code
G92 E0 ; Reset Extruder
G28 ; Home all axes
G1 Z2.0 F3000 ; Move Z Axis up little to prevent scratching of Heat Bed
G1 X0.1 Y20 Z0.3 F5000.0 ; Move to start position
G1 X0.1 Y200.0 Z0.3 F1500.0 E15 ; Draw the first line
G1 X0.4 Y200.0 Z0.3 F5000.0 ; Move to side a little
G1 X0.4 Y20 Z0.3 F1500.0 E30 ; Draw the second line
G92 E0 ; Reset Extruder
G1 Z2.0 F3000 ; Move Z Axis up little to prevent scratching of Heat Bed
G1 X5 Y20 Z0.3 F5000.0 ; Move over to prevent blob squish
G92 E0
G92 E0
G1 F1500 E-6.5
;LAYER_COUNT:25
;LAYER:0
M107
G0 F6000 X57.683 Y58.04 Z0.32
;TYPE:SKIRT
G1 F1500 E0
G1 F1200 X58.39 Y57.334 E0.13293
G1 X59.323 Y56.554 E0.29472
G1 X60.127 Y55.946 E0.42882
G1 X60.458 Y55.703 E0.48345
G1 X60.619 Y55.587 E0.50985
G1 X61.14 Y55.22 E0.59464
G1 X61.98 Y54.677 E0.72771
G1 X63.026 Y54.124 E0.88512
G1 X63.978 Y53.677 E1.02504
G1 X64.311 Y53.526 E1.07368
G1 X65.082 Y53.193 E1.18542
G1 X66.016 Y52.835 E1.31849
G1 X67.184 Y52.502 E1.48008
G1 X68.21 Y52.263 E1.62023
G1 X68.585 Y52.182 E1.67127
G1 X69.357 Y52.027 E1.77603
G1 X70.345 Y51.869 E1.90914
G1 X71.571 Y51.784 E2.07264
G1 X72.634 Y51.763 E2.21409
G1 X73.012 Y51.761 E2.26438
G1 X73.889 Y51.772 E2.38107
G1 X74.907 Y51.828 E2.51671
G1 X75.298 Y51.866 E2.56897
G1 X77.802 Y52.078 E2.9033
G1 X80.27 Y52.217 E3.23216
G1 X82.745 Y52.286 E3.56156
G1 X85.219 Y52.286 E3.89071
G1 X87.689 Y52.215 E4.21945
G1 X90.148 Y52.075 E4.54713
G1 X91.845 Y51.921 E4.77382
G1 X93.073 Y51.824 E4.93771
G1 X93.802 Y51.788 E5.03481
G1 X94.978 Y51.764 E5.1913
G1 X95.364 Y51.761 E5.24266
G1 X96.302 Y51.775 E5.36746
G1 X97.345 Y51.835 E5.50645
G1 X97.652 Y51.866 E5.5475
G1 X100.152 Y52.078 E5.8813
G1 X102.623 Y52.217 E6.21056
G1 X105.097 Y52.286 E6.53983
G1 X107.572 Y52.286 E6.86911
G1 X110.043 Y52.215 E7.19799
G1 X112.49 Y52.076 E7.52406
G1 X114.187 Y51.923 E7.75075
G1 X115.415 Y51.825 E7.91464
G1 X116.154 Y51.788 E8.01308
G1 X117.33 Y51.764 E8.16957
G1 X117.716 Y51.761 E8.22092
G1 X118.654 Y51.775 E8.34573
G1 X119.697 Y51.835 E8.48472
G1 X120.004 Y51.866 E8.52577
G1 X122.504 Y52.078 E8.85957
G1 X124.975 Y52.217 E9.18883
G1 X127.449 Y52.286 E9.5181
G1 X129.924 Y52.286 E9.84737
G1 X132.395 Y52.215 E10.17625
G1 X134.842 Y52.076 E10.50233
G1 X136.539 Y51.923 E10.72901
G1 X137.767 Y51.825 E10.89291
G1 X138.506 Y51.788 E10.99135
G1 X139.682 Y51.764 E11.14784
G1 X140.068 Y51.761 E11.19919
G1 X141.006 Y51.775 E11.324
G1 X142.049 Y51.835 E11.46299
G1 X142.356 Y51.866 E11.50404
G1 X144.856 Y52.078 E11.83783
G1 X147.327 Y52.217 E12.1671
G1 X149.801 Y52.286 E12.49637
G1 X152.276 Y52.286 E12.82564
G1 X154.747 Y52.215 E13.15452
G1 X157.194 Y52.076 E13.4806
G1 X158.891 Y51.923 E13.70728
G1 X160.119 Y51.825 E13.87117
G1 X160.858 Y51.788 E13.96961
G1 X162.034 Y51.764 E14.1261
G1 X162.42 Y51.761 E14.17746
G1 X163.241 Y51.771 E14.28669
G1 X164.239 Y51.825 E14.41966
G1 X165.415 Y51.993 E14.57771
G1 X166.445 Y52.19 E14.71722
G1 X166.865 Y52.277 E14.77428
G1 X167.649 Y52.455 E14.88124
G1 X168.614 Y52.715 E15.01421
G1 X169.738 Y53.127 E15.17347
G1 X170.689 Y53.528 E15.31078
G1 X171.062 Y53.691 E15.36494
G1 X171.779 Y54.02 E15.46989
G1 X172.67 Y54.474 E15.60293
G1 X173.726 Y55.137 E15.76882
G1 X174.633 Y55.772 E15.91612
G1 X174.898 Y55.963 E15.95958
G1 X175.486 Y56.398 E16.05688
G1 X176.266 Y57.024 E16.18994
G1 X177.172 Y57.898 E16.35742
G1 X177.92 Y58.696 E16.50294
G1 X178.202 Y59.008 E16.55889
G1 X178.704 Y59.581 E16.66024
G1 X179.332 Y60.359 E16.79325
G1 X179.998 Y61.35 E16.9521
G1 X180.535 Y62.238 E17.09017
G1 X180.684 Y62.49 E17.12912
G1 X180.846 Y62.775 E17.17273
G1 X181.142 Y63.305 E17.25349
G1 X181.595 Y64.197 E17.38659
G1 X182.036 Y65.296 E17.54413
G1 X182.393 Y66.323 E17.68879
G1 X182.52 Y66.71 E17.74298
G1 X182.748 Y67.442 E17.84498
G1 X183.007 Y68.407 E17.9779
G1 X183.218 Y69.61 E18.14039
G1 X183.347 Y70.643 E18.27889
G1 X183.409 Y71.223 E18.3565
G1 X183.466 Y71.849 E18.44012
G1 X183.516 Y72.847 E18.57306
G1 X183.472 Y74.04 E18.73189
G1 X183.307 Y75.983 E18.99132
G1 X183.166 Y77.549 E19.2005
G1 X183.016 Y79.996 E19.52666
G1 X182.932 Y82.478 E19.85706
G1 X182.92 Y84.946 E20.18541
G1 X182.979 Y87.454 E20.51917
G1 X183.103 Y89.87 E20.84101
G1 X183.395 Y93.299 E21.29886
G1 X183.466 Y94.08 E21.40319
G1 X183.516 Y95.079 E21.53627
G1 X183.472 Y96.269 E21.69469
G1 X183.305 Y98.234 E21.95706
G1 X183.169 Y99.743 E22.15863
G1 X183.015 Y102.222 E22.48908
G1 X182.933 Y104.686 E22.81707
G1 X182.92 Y107.168 E23.14728
G1 X182.977 Y109.666 E23.4797
G1 X183.102 Y112.086 E23.80209
G1 X183.395 Y115.528 E24.26167
G1 X183.466 Y116.309 E24.36601
G1 X183.516 Y117.308 E24.49908
G1 X183.472 Y118.499 E24.65764
G1 X183.307 Y120.442 E24.91707
G1 X183.166 Y122.008 E25.12625
G1 X183.016 Y124.455 E25.45241
G1 X182.932 Y126.937 E25.78281
G1 X182.92 Y129.405 E26.11116
G1 X182.979 Y131.913 E26.44491
G1 X183.103 Y134.317 E26.76517
G1 X183.351 Y137.233 E27.15452
G1 X183.469 Y138.574 E27.33361
G1 X183.517 Y139.573 E27.46667
G1 X183.472 Y140.728 E27.62045
G1 X183.307 Y142.671 E27.87988
G1 X183.166 Y144.237 E28.08906
G1 X183.016 Y146.684 E28.41523
G1 X182.932 Y149.166 E28.74562
G1 X182.92 Y151.634 E29.07397
G1 X182.979 Y154.142 E29.40773
G1 X183.103 Y156.558 E29.72958
G1 X183.395 Y159.987 E30.18742
G1 X183.466 Y160.768 E30.29176
G1 X183.516 Y161.767 E30.42483
G1 X183.472 Y162.959 E30.58352
G1 X183.362 Y164.233 E30.75365
G1 X183.322 Y164.604 E30.80329
G1 X183.249 Y165.215 E30.88516
G1 X183.091 Y166.202 E31.01814
G1 X182.793 Y167.379 E31.17967
G1 X182.459 Y168.474 E31.33197
G1 X182.339 Y168.848 E31.38423
G1 X182.11 Y169.522 E31.47893
G1 X181.75 Y170.455 E31.61198
G1 X181.222 Y171.533 E31.77168
G1 X180.741 Y172.406 E31.90428
G1 X180.512 Y172.808 E31.96583
G1 X180.095 Y173.508 E32.07424
G1 X179.547 Y174.344 E32.20722
G1 X178.822 Y175.267 E32.36337
G1 X178.077 Y176.128 E32.51485
G1 X177.804 Y176.433 E32.56931
G1 X177.317 Y176.96 E32.66477
G1 X176.61 Y177.666 E32.7977
G1 X175.677 Y178.446 E32.95949
G1 X174.873 Y179.054 E33.09359
G1 X174.542 Y179.297 E33.14822
G1 X174.381 Y179.413 E33.17462
G1 X173.86 Y179.78 E33.25941
G1 X173.02 Y180.323 E33.39248
G1 X171.974 Y180.876 E33.54989
G1 X171.022 Y181.323 E33.68981
G1 X170.689 Y181.474 E33.73845
G1 X169.918 Y181.807 E33.85019
G1 X168.984 Y182.165 E33.98326
G1 X167.816 Y182.498 E34.14485
G1 X166.79 Y182.737 E34.285
G1 X166.415 Y182.818 E34.33604
G1 X165.643 Y182.973 E34.4408
G1 X164.655 Y183.131 E34.57391
G1 X163.429 Y183.216 E34.73741
G1 X162.367 Y183.237 E34.87873
G1 X161.988 Y183.239 E34.92915
G1 X161.05 Y183.225 E35.05396
G1 X160.007 Y183.165 E35.19295
G1 X159.7 Y183.134 E35.234
G1 X157.2 Y182.922 E35.56779
G1 X154.729 Y182.783 E35.89706
G1 X152.255 Y182.714 E36.22633
G1 X149.78 Y182.714 E36.5556
G1 X147.309 Y182.785 E36.88448
G1 X144.862 Y182.924 E37.21056
G1 X143.165 Y183.077 E37.43724
G1 X141.937 Y183.175 E37.60113
G1 X141.198 Y183.212 E37.69958
G1 X140.023 Y183.236 E37.85593
G1 X139.636 Y183.239 E37.90742
G1 X138.698 Y183.225 E38.03222
G1 X137.655 Y183.165 E38.17122
G1 X137.348 Y183.134 E38.21227
G1 X134.848 Y182.922 E38.54606
G1 X132.377 Y182.783 E38.87532
G1 X129.903 Y182.714 E39.20459
G1 X127.428 Y182.714 E39.53387
G1 X124.957 Y182.785 E39.86275
G1 X122.51 Y182.924 E40.18882
G1 X120.813 Y183.077 E40.41551
G1 X119.585 Y183.175 E40.5794
G1 X118.846 Y183.212 E40.67784
G1 X117.671 Y183.236 E40.8342
G1 X117.284 Y183.239 E40.88569
G1 X116.346 Y183.225 E41.01049
G1 X115.303 Y183.165 E41.14948
G1 X114.996 Y183.134 E41.19053
G1 X112.496 Y182.922 E41.52433
G1 X110.025 Y182.783 E41.85359
G1 X107.551 Y182.714 E42.18286
G1 X105.076 Y182.714 E42.51214
G1 X102.605 Y182.785 E42.84102
G1 X100.158 Y182.924 E43.16709
G1 X98.461 Y183.077 E43.39378
G1 X97.233 Y183.175 E43.55767
G1 X96.494 Y183.212 E43.65611
G1 X95.319 Y183.236 E43.81247
G1 X94.932 Y183.239 E43.86395
G1 X93.994 Y183.225 E43.98876
G1 X92.951 Y183.165 E44.12775
G1 X92.644 Y183.134 E44.1688
G1 X90.144 Y182.922 E44.5026
G1 X87.673 Y182.783 E44.83186
G1 X85.199 Y182.714 E45.16113
G1 X82.724 Y182.714 E45.4904
G1 X80.253 Y182.785 E45.81928
G1 X77.806 Y182.924 E46.14536
G1 X76.109 Y183.077 E46.37204
G1 X74.881 Y183.175 E46.53594
G1 X74.142 Y183.212 E46.63438
G1 X72.967 Y183.236 E46.79073
G1 X72.58 Y183.239 E46.84222
G1 X71.759 Y183.229 E46.95146
G1 X70.761 Y183.175 E47.08442
G1 X69.585 Y183.007 E47.24247
G1 X68.555 Y182.81 E47.38198
G1 X68.135 Y182.723 E47.43905
G1 X67.351 Y182.545 E47.54601
G1 X66.386 Y182.285 E47.67897
G1 X65.262 Y181.873 E47.83823
G1 X64.311 Y181.472 E47.97554
G1 X63.904 Y181.293 E48.0347
G1 X63.21 Y180.974 E48.13631
G1 X62.319 Y180.52 E48.26935
G1 X61.28 Y179.868 E48.43255
G1 X60.422 Y179.269 E48.57176
G1 X60.117 Y179.05 E48.62171
G1 X59.481 Y178.577 E48.72716
G1 X58.704 Y177.949 E48.86008
G1 X57.815 Y177.089 E49.02464
G1 X57.084 Y176.308 E49.16695
G1 X56.817 Y176.014 E49.21979
G1 X56.689 Y175.87 E49.24542
G1 X56.275 Y175.395 E49.32925
G1 X55.649 Y174.616 E49.46221
G1 X55.002 Y173.65 E49.61689
G1 X54.465 Y172.762 E49.75495
G1 X54.316 Y172.51 E49.7939
G1 X54.154 Y172.225 E49.83751
G1 X53.858 Y171.695 E49.91827
G1 X53.405 Y170.803 E50.05137
G1 X52.964 Y169.704 E50.20892
G1 X52.607 Y168.677 E50.35357
G1 X52.48 Y168.29 E50.40776
G1 X52.252 Y167.558 E50.50976
G1 X51.993 Y166.593 E50.64268
G1 X51.782 Y165.389 E50.80531
G1 X51.652 Y164.347 E50.94501
G1 X51.606 Y163.928 E51.00109
G1 X51.534 Y163.151 E51.1049
G1 X51.484 Y162.153 E51.23784
G1 X51.528 Y160.96 E51.39667
G1 X51.693 Y159.017 E51.6561
G1 X51.834 Y157.451 E51.86528
G1 X51.984 Y155.004 E52.19144
G1 X52.068 Y152.522 E52.52184
G1 X52.08 Y150.054 E52.85019
G1 X52.021 Y147.546 E53.18395
G1 X51.897 Y145.13 E53.50579
G1 X51.605 Y141.701 E53.96364
G1 X51.534 Y140.921 E54.06784
G1 X51.484 Y139.923 E54.20078
G1 X51.528 Y138.731 E54.35948
G1 X51.695 Y136.766 E54.62184
G1 X51.831 Y135.257 E54.82341
G1 X51.985 Y132.778 E55.15386
G1 X52.067 Y130.314 E55.48185
G1 X52.08 Y127.832 E55.81206
G1 X52.023 Y125.334 E56.14448
G1 X51.898 Y122.914 E56.46687
G1 X51.599 Y119.399 E56.9362
G1 X51.535 Y118.695 E57.03024
G1 X51.484 Y117.697 E57.16319
G1 X51.528 Y116.502 E57.32228
G1 X51.695 Y114.537 E57.58465
G1 X51.831 Y113.028 E57.78622
G1 X51.985 Y110.549 E58.11667
G1 X52.067 Y108.085 E58.44466
G1 X52.08 Y105.603 E58.77487
G1 X52.023 Y103.105 E59.10729
G1 X51.898 Y100.685 E59.42968
G1 X51.599 Y97.17 E59.89901
G1 X51.535 Y96.464 E59.99332
G1 X51.484 Y95.465 E60.1264
G1 X51.528 Y94.27 E60.28549
G1 X51.693 Y92.329 E60.54465
G1 X51.834 Y90.763 E60.75384
G1 X51.984 Y88.316 E61.08
G1 X52.068 Y85.834 E61.41039
G1 X52.08 Y83.366 E61.73874
G1 X52.021 Y80.858 E62.0725
G1 X51.897 Y78.442 E62.39435
G1 X51.605 Y75.013 E62.8522
G1 X51.534 Y74.233 E62.9564
G1 X51.484 Y73.235 E63.08934
G1 X51.528 Y72.041 E63.24829
G1 X51.638 Y70.767 E63.41842
G1 X51.678 Y70.398 E63.4678
G1 X51.751 Y69.786 E63.5498
G1 X51.909 Y68.799 E63.68278
G1 X52.208 Y67.617 E63.84499
G1 X52.542 Y66.523 E63.99717
G1 X52.661 Y66.152 E64.049
G1 X52.89 Y65.478 E64.1437
G1 X53.25 Y64.545 E64.27675
G1 X53.778 Y63.467 E64.43645
G1 X54.259 Y62.594 E64.56905
G1 X54.488 Y62.192 E64.6306
G1 X54.905 Y61.492 E64.73901
G1 X55.453 Y60.656 E64.87199
G1 X56.178 Y59.733 E65.02814
G1 X56.923 Y58.872 E65.17962
G1 X57.196 Y58.567 E65.23408
G1 X57.683 Y58.04 E65.32954
G0 F6000 X58.417 Y58.719
G1 F1200 X59.097 Y58.043 E65.45711
G1 X59.927 Y57.351 E65.60087
G1 X60.731 Y56.743 E65.73498
G1 X61.195 Y56.404 E65.81143
G1 X61.716 Y56.037 E65.89621
G1 X62.523 Y55.518 E66.02387
G1 X63.451 Y55.029 E66.16342
G1 X64.403 Y54.582 E66.30334
G1 X64.721 Y54.438 E66.34978
G1 X65.477 Y54.111 E66.45937
G1 X66.373 Y53.77 E66.58691
G1 X67.411 Y53.476 E66.73044
G1 X68.437 Y53.237 E66.87059
G1 X68.782 Y53.162 E66.91757
G1 X69.554 Y53.007 E67.02232
G1 X70.501 Y52.858 E67.14986
G1 X71.591 Y52.784 E67.29521
G1 X72.654 Y52.763 E67.43666
G1 X73.012 Y52.761 E67.48429
G1 X73.875 Y52.772 E67.59911
G1 X74.811 Y52.824 E67.72383
G1 X75.113 Y52.853 E67.76419
G1 X77.733 Y53.075 E68.11401
G1 X80.222 Y53.215 E68.44567
G1 X82.753 Y53.286 E68.78253
G1 X85.248 Y53.286 E69.11446
G1 X87.739 Y53.215 E69.446
G1 X90.206 Y53.074 E69.77475
G1 X91.923 Y52.918 E70.00412
G1 X93.151 Y52.821 E70.168
G1 X93.822 Y52.787 E70.25739
G1 X94.998 Y52.763 E70.41388
G1 X95.364 Y52.761 E70.46257
G1 X96.286 Y52.775 E70.58525
G1 X97.245 Y52.83 E70.71304
G1 X97.529 Y52.858 E70.75101
G1 X100.085 Y53.075 E71.09228
G1 X102.573 Y53.215 E71.42381
G1 X105.105 Y53.286 E71.7608
G1 X107.601 Y53.286 E72.09287
G1 X110.091 Y53.215 E72.42428
G1 X112.548 Y53.075 E72.75169
G1 X114.266 Y52.919 E72.98119
G1 X115.494 Y52.821 E73.14509
G1 X116.174 Y52.787 E73.23567
G1 X117.35 Y52.763 E73.39216
G1 X117.716 Y52.761 E73.44085
G1 X118.638 Y52.775 E73.56353
G1 X119.597 Y52.83 E73.69132
G1 X119.881 Y52.858 E73.72929
G1 X122.437 Y53.075 E74.07056
G1 X124.925 Y53.215 E74.40209
G1 X127.457 Y53.286 E74.73908
G1 X129.953 Y53.286 E75.07115
G1 X132.443 Y53.215 E75.40256
G1 X134.9 Y53.075 E75.72997
G1 X136.618 Y52.919 E75.95947
G1 X137.846 Y52.821 E76.12337
G1 X138.526 Y52.787 E76.21395
G1 X139.702 Y52.763 E76.37043
G1 X140.068 Y52.761 E76.41913
G1 X140.99 Y52.775 E76.54181
G1 X141.949 Y52.83 E76.6696
G1 X142.233 Y52.858 E76.70757
G1 X144.789 Y53.075 E77.04884
G1 X147.277 Y53.215 E77.38037
G1 X149.809 Y53.286 E77.71736
G1 X152.305 Y53.286 E78.04943
G1 X154.795 Y53.215 E78.38084
G1 X157.252 Y53.075 E78.70825
G1 X158.97 Y52.919 E78.93775
G1 X160.198 Y52.821 E79.10165
G1 X160.878 Y52.787 E79.19223
G1 X162.054 Y52.763 E79.34871
G1 X162.42 Y52.761 E79.39741
G1 X163.227 Y52.771 E79.50478
G1 X164.184 Y52.824 E79.63229
G1 X165.227 Y52.975 E79.7725
G1 X166.257 Y53.172 E79.91202
G1 X166.643 Y53.252 E79.96446
G1 X167.427 Y53.43 E80.07142
G1 X168.353 Y53.682 E80.1991
G1 X169.349 Y54.049 E80.34032
G1 X170.503 Y54.537 E80.50701
G1 X170.789 Y54.666 E80.54875
G1 X171.361 Y54.929 E80.63251
G1 X172.215 Y55.365 E80.76007
G1 X173.153 Y55.956 E80.90757
G1 X174.06 Y56.591 E81.05487
G1 X174.303 Y56.767 E81.09479
G1 X174.891 Y57.202 E81.1921
G1 X175.638 Y57.804 E81.31973
G1 X176.442 Y58.582 E81.46858
G1 X177.19 Y59.38 E81.61409
G1 X177.45 Y59.667 E81.66561
G1 X177.952 Y60.24 E81.76696
G1 X178.553 Y60.987 E81.89452
G1 X179.143 Y61.867 E82.03547
G1 X179.68 Y62.755 E82.17353
G1 X179.91 Y63.151 E82.23446
G1 X180.269 Y63.793 E82.33232
G1 X180.702 Y64.649 E82.45994
G1 X181.091 Y65.624 E82.5996
G1 X181.448 Y66.651 E82.74425
G1 X181.566 Y67.007 E82.79415
G1 X181.794 Y67.739 E82.89615
G1 X182.04 Y68.666 E83.02374
G1 X182.225 Y69.734 E83.16795
G1 X182.354 Y70.767 E83.30645
G1 X182.399 Y71.17 E83.36039
G1 X182.47 Y71.939 E83.46314
G1 X182.517 Y72.897 E83.59074
G1 X182.476 Y73.956 E83.73174
G1 X182.311 Y75.894 E83.99051
G1 X182.169 Y77.472 E84.20129
G1 X182.018 Y79.935 E84.52959
G1 X181.932 Y82.475 E84.8677
G1 X181.92 Y84.964 E85.19884
G1 X181.978 Y87.46 E85.531
G1 X182.106 Y89.944 E85.86191
G1 X182.399 Y93.39 E86.32203
G1 X182.47 Y94.171 E86.42636
G1 X182.517 Y95.129 E86.55396
G1 X182.476 Y96.184 E86.69443
G1 X182.309 Y98.144 E86.95613
G1 X182.172 Y99.662 E87.15891
G1 X182.017 Y102.163 E87.49228
G1 X181.933 Y104.682 E87.8276
G1 X181.92 Y107.186 E88.16074
G1 X181.977 Y109.67 E88.4913
G1 X182.106 Y112.164 E88.82354
G1 X182.399 Y115.619 E89.28485
G1 X182.47 Y116.4 E89.38918
G1 X182.517 Y117.358 E89.51679
G1 X182.476 Y118.415 E89.65752
G1 X182.311 Y120.353 E89.91628
G1 X182.169 Y121.931 E90.12707
G1 X182.018 Y124.394 E90.45536
G1 X181.932 Y126.934 E90.79348
G1 X181.92 Y129.423 E91.12462
G1 X181.978 Y131.919 E91.45678
G1 X182.106 Y134.391 E91.7861
G1 X182.355 Y137.321 E92.17731
G1 X182.473 Y138.662 E92.35641
G1 X182.517 Y139.62 E92.48399
G1 X182.476 Y140.644 E92.62034
G1 X182.311 Y142.582 E92.8791
G1 X182.169 Y144.16 E93.08989
G1 X182.018 Y146.623 E93.41818
G1 X181.932 Y149.163 E93.7563
G1 X181.92 Y151.652 E94.08744
G1 X181.978 Y154.148 E94.4196
G1 X182.106 Y156.632 E94.75051
