;FLAVOR:Marlin
;TIME:953
;Filament used: 0.599968m
;Layer height: 0.2
;MINX:96.697
;MINY:96.715
;MINZ:0.2
;MAXX:123.303
;MAXY:123.285
;MAXZ:8
;Generated with Cura_SteamEngine 4.2.1
M140 S60
M105
M190 S60
M104 S200
M105
M109 S200
M82 ;absolute extrusion mode
M201 X500.00 Y500.00 Z100.00 E5000.00 ;Setup machine max acceleration
M203 X500.00 Y500.00 Z10.00 E50.00 ;Setup machine max feedrate
M204 P500.00 R1000.00 T500.00 ;Setup Print/Retract/Travel acceleration
M205 X8.00 Y8.00 Z0.40 E5.00 ;Setup Jerk
M220 S100 ;Reset Feedrate
M221 S100 ;Reset Flowrate

G28 ;Home

G92 E0 ;Reset Extruder
G1 Z2.0 F3000 ;Move Z Axis up
G1 X10.1 Y20 Z0.28 F5000.0 ;Move to start position
G1 X10.1 Y200.0 Z0.28 F1500.0 E15 ;Draw the first line
G1 X10.4 Y200.0 Z0.28 F5000.0 ;Move to side a little
G1 X10.4 Y20 Z0.28 F1500.0 E30 ;Draw the second line
G92 E0 ;Reset Extruder
G1 Z2.0 F3000 ;Move Z Axis up

G92 E0
G92 E0
G1 F2700 E-5
;LAYER_COUNT:40
;LAYER:0
M107
G0 F6000 X100.745 Y100.438 Z0.2
;TYPE:SKIRT
G1 F2700 E0
G1 F1200 X101.346 Y99.892 E0.02971
G1 X102.18 Y99.261 E0.06797
G1 X102.297 Y99.176 E0.07326
G1 X102.943 Y98.719 E0.10221
G1 X103.637 Y98.315 E0.13159
G1 X104.594 Y97.866 E0.17027
G1 X104.717 Y97.81 E0.17521
G1 X105.421 Y97.505 E0.20328
G1 X106.194 Y97.25 E0.23306
G1 X107.244 Y97.005 E0.27251
G1 X107.386 Y96.974 E0.27783
G1 X108.156 Y96.82 E0.30655
G1 X108.844 Y96.736 E0.33191
G1 X109.181 Y96.721 E0.34425
G1 X109.372 Y96.717 E0.35124
G1 X110.206 Y96.715 E0.38176
G1 X110.28 Y96.715 E0.38446
G1 X110.924 Y96.724 E0.40803
G1 X111.716 Y96.805 E0.43716
G1 X112.728 Y96.999 E0.47486
G1 X112.865 Y97.028 E0.47998
G1 X113.651 Y97.204 E0.50945
G1 X114.423 Y97.451 E0.5391
G1 X115.407 Y97.866 E0.57817
G1 X115.537 Y97.923 E0.58337
G1 X116.243 Y98.247 E0.61179
G1 X116.946 Y98.649 E0.64142
G1 X117.766 Y99.221 E0.67799
G1 X117.875 Y99.3 E0.68292
G1 X118.535 Y99.79 E0.71299
G1 X119.143 Y100.331 E0.74277
G1 X119.882 Y101.12 E0.78232
G1 X119.984 Y101.234 E0.78792
G1 X120.49 Y101.812 E0.81602
G1 X120.96 Y102.454 E0.84513
G1 X121.487 Y103.326 E0.88241
G1 X121.557 Y103.447 E0.88752
G1 X121.951 Y104.147 E0.91691
G1 X122.283 Y104.882 E0.94642
G1 X122.625 Y105.865 E0.9845
G1 X122.672 Y106.008 E0.99
G1 X122.911 Y106.776 E1.01943
G1 X123.081 Y107.562 E1.04885
G1 X123.208 Y108.579 E1.08635
G1 X123.222 Y108.708 E1.0911
G1 X123.298 Y109.5 E1.12021
G1 X123.303 Y110.319 E1.15017
G1 X123.211 Y111.401 E1.1899
G1 X123.196 Y111.549 E1.19534
G1 X123.106 Y112.31 E1.22338
G1 X122.941 Y113.097 E1.2528
G1 X122.639 Y114.091 E1.29081
G1 X122.596 Y114.224 E1.29592
G1 X122.343 Y114.973 E1.32484
G1 X122.018 Y115.711 E1.35435
G1 X121.515 Y116.624 E1.39248
G1 X121.443 Y116.75 E1.39779
G1 X121.04 Y117.429 E1.42668
G1 X120.571 Y118.081 E1.45607
G1 X119.882 Y118.878 E1.49461
G1 X119.787 Y118.984 E1.49982
G1 X119.255 Y119.562 E1.52856
G1 X118.654 Y120.108 E1.55827
G1 X117.82 Y120.739 E1.59653
G1 X117.706 Y120.822 E1.60169
G1 X117.061 Y121.279 E1.63061
G1 X116.363 Y121.686 E1.66017
G1 X115.405 Y122.135 E1.69888
G1 X115.283 Y122.19 E1.70377
G1 X114.579 Y122.495 E1.73184
G1 X113.806 Y122.75 E1.76162
G1 X112.756 Y122.995 E1.80107
G1 X112.619 Y123.025 E1.8062
G1 X111.873 Y123.175 E1.83404
G1 X111.069 Y123.263 E1.86363
G1 X110.021 Y123.284 E1.90198
G1 X109.878 Y123.285 E1.90722
G1 X109.087 Y123.276 E1.93616
G1 X108.286 Y123.195 E1.96561
G1 X107.262 Y122.999 E2.00376
G1 X107.119 Y122.969 E2.0091
G1 X106.345 Y122.795 E2.03813
G1 X105.577 Y122.549 E2.06763
G1 X104.593 Y122.134 E2.1067
G1 X104.463 Y122.077 E2.1119
G1 X103.757 Y121.753 E2.14032
G1 X103.054 Y121.351 E2.16994
G1 X102.234 Y120.779 E2.20652
G1 X102.125 Y120.7 E2.21145
G1 X101.465 Y120.21 E2.24152
G1 X100.857 Y119.669 E2.2713
G1 X100.118 Y118.88 E2.31085
G1 X100.016 Y118.766 E2.31644
G1 X99.51 Y118.188 E2.34455
G1 X99.04 Y117.546 E2.37366
G1 X98.513 Y116.674 E2.41094
G1 X98.443 Y116.553 E2.41605
G1 X98.049 Y115.853 E2.44544
G1 X97.717 Y115.118 E2.47495
G1 X97.375 Y114.135 E2.51302
G1 X97.328 Y113.992 E2.51853
G1 X97.089 Y113.224 E2.54796
G1 X96.919 Y112.438 E2.57738
G1 X96.792 Y111.421 E2.61488
G1 X96.778 Y111.292 E2.61963
G1 X96.702 Y110.5 E2.64873
G1 X96.697 Y109.681 E2.6787
G1 X96.789 Y108.599 E2.71843
G1 X96.804 Y108.451 E2.72387
G1 X96.894 Y107.689 E2.75194
G1 X97.059 Y106.901 E2.7814
G1 X97.361 Y105.908 E2.81937
G1 X97.404 Y105.776 E2.82445
G1 X97.657 Y105.027 E2.85337
G1 X97.982 Y104.289 E2.88288
G1 X98.485 Y103.376 E2.92101
G1 X98.557 Y103.25 E2.92632
G1 X98.96 Y102.571 E2.95521
G1 X99.429 Y101.919 E2.9846
G1 X100.118 Y101.122 E3.02314
G1 X100.213 Y101.016 E3.02835
G1 X100.745 Y100.438 E3.05709
G0 F6000 X101.068 Y100.736
G1 F1200 X101.611 Y100.243 E3.08392
G1 X102.445 Y99.612 E3.12218
G1 X102.551 Y99.535 E3.12698
G1 X103.197 Y99.078 E3.15593
G1 X103.824 Y98.713 E3.18247
G1 X104.781 Y98.264 E3.22115
G1 X104.892 Y98.214 E3.2256
G1 X105.596 Y97.909 E3.25367
G1 X106.294 Y97.678 E3.28057
G1 X107.344 Y97.433 E3.32002
G1 X107.472 Y97.406 E3.3248
G1 X108.242 Y97.252 E3.35353
G1 X108.864 Y97.176 E3.37646
G1 X109.201 Y97.161 E3.3888
G1 X109.373 Y97.157 E3.3951
G1 X110.207 Y97.155 E3.42561
G1 X110.274 Y97.155 E3.42806
G1 X110.918 Y97.164 E3.45162
G1 X111.633 Y97.237 E3.47792
G1 X112.645 Y97.431 E3.51562
G1 X112.769 Y97.457 E3.52025
G1 X113.555 Y97.633 E3.54972
G1 X114.252 Y97.856 E3.5765
G1 X115.236 Y98.271 E3.61557
G1 X115.353 Y98.323 E3.62025
G1 X116.059 Y98.647 E3.64867
G1 X116.695 Y99.01 E3.67546
G1 X117.515 Y99.582 E3.71204
G1 X117.613 Y99.653 E3.71647
G1 X118.273 Y100.143 E3.74654
G1 X118.821 Y100.632 E3.77341
G1 X119.56 Y101.421 E3.81297
G1 X119.653 Y101.523 E3.81802
G1 X120.159 Y102.101 E3.84612
G1 X120.583 Y102.681 E3.87241
G1 X121.11 Y103.553 E3.90968
G1 X121.174 Y103.663 E3.91434
G1 X121.568 Y104.363 E3.94373
G1 X121.867 Y105.027 E3.97037
G1 X122.209 Y106.01 E4.00845
G1 X122.252 Y106.139 E4.01342
G1 X122.491 Y106.907 E4.04285
G1 X122.644 Y107.617 E4.06942
G1 X122.771 Y108.634 E4.10692
G1 X122.784 Y108.75 E4.11119
G1 X122.86 Y109.542 E4.1403
G1 X122.864 Y110.281 E4.16734
G1 X122.772 Y111.363 E4.20707
G1 X122.759 Y111.498 E4.21203
G1 X122.669 Y112.259 E4.24007
G1 X122.52 Y112.969 E4.26661
G1 X122.218 Y113.963 E4.30462
G1 X122.179 Y114.083 E4.30923
G1 X121.926 Y114.832 E4.33816
G1 X121.633 Y115.498 E4.36478
G1 X121.13 Y116.411 E4.40291
G1 X121.065 Y116.526 E4.40775
G1 X120.662 Y117.205 E4.43663
G1 X120.238 Y117.793 E4.46316
G1 X119.549 Y118.59 E4.5017
G1 X119.464 Y118.686 E4.50639
G1 X118.932 Y119.264 E4.53513
G1 X118.389 Y119.757 E4.56197
G1 X117.555 Y120.388 E4.60023
G1 X117.451 Y120.463 E4.60492
G1 X116.806 Y120.92 E4.63384
G1 X116.176 Y121.287 E4.66052
G1 X115.218 Y121.736 E4.69922
G1 X115.108 Y121.786 E4.70364
G1 X114.404 Y122.091 E4.73171
G1 X113.706 Y122.322 E4.75861
G1 X112.656 Y122.567 E4.79806
G1 X112.532 Y122.594 E4.8027
G1 X111.786 Y122.744 E4.83054
G1 X111.06 Y122.823 E4.85726
G1 X110.012 Y122.844 E4.89561
G1 X109.883 Y122.845 E4.90033
G1 X109.092 Y122.836 E4.92927
G1 X108.368 Y122.763 E4.9559
G1 X107.344 Y122.567 E4.99404
G1 X107.216 Y122.54 E4.99883
G1 X106.442 Y122.366 E5.02785
G1 X105.748 Y122.144 E5.05451
G1 X104.764 Y121.729 E5.09358
G1 X104.647 Y121.677 E5.09826
G1 X103.941 Y121.353 E5.12668
G1 X103.305 Y120.99 E5.15348
G1 X102.485 Y120.418 E5.19005
G1 X102.387 Y120.347 E5.19448
G1 X101.727 Y119.857 E5.22456
G1 X101.179 Y119.368 E5.25143
G1 X100.44 Y118.579 E5.29098
G1 X100.347 Y118.477 E5.29603
G1 X99.841 Y117.899 E5.32413
G1 X99.417 Y117.319 E5.35042
G1 X98.89 Y116.447 E5.3877
G1 X98.826 Y116.337 E5.39235
G1 X98.432 Y115.637 E5.42174
G1 X98.133 Y114.973 E5.44838
G1 X97.791 Y113.99 E5.48646
G1 X97.748 Y113.861 E5.49144
G1 X97.509 Y113.093 E5.52086
G1 X97.356 Y112.383 E5.54744
G1 X97.229 Y111.366 E5.58493
G1 X97.216 Y111.25 E5.5892
G1 X97.14 Y110.458 E5.61831
G1 X97.136 Y109.719 E5.64535
G1 X97.228 Y108.637 E5.68508
G1 X97.241 Y108.503 E5.69001
G1 X97.331 Y107.741 E5.71808
G1 X97.48 Y107.029 E5.74469
G1 X97.782 Y106.036 E5.78266
G1 X97.821 Y105.917 E5.78725
G1 X98.074 Y105.168 E5.81617
G1 X98.367 Y104.502 E5.84279
G1 X98.87 Y103.589 E5.88093
G1 X98.935 Y103.474 E5.88576
G1 X99.338 Y102.795 E5.91465
G1 X99.762 Y102.207 E5.94117
G1 X100.451 Y101.41 E5.97972
G1 X100.536 Y101.314 E5.98441
G1 X101.068 Y100.736 E6.01315
G0 F6000 X101.392 Y101.034
G1 F1200 X101.877 Y100.594 E6.03711
G1 X102.711 Y99.963 E6.07537
G1 X102.805 Y99.894 E6.07963
G1 X103.451 Y99.437 E6.10858
G1 X104.01 Y99.112 E6.13224
G1 X104.967 Y98.663 E6.17092
G1 X105.067 Y98.618 E6.17493
G1 X105.771 Y98.313 E6.203
G1 X106.394 Y98.107 E6.22701
G1 X107.444 Y97.862 E6.26645
G1 X107.558 Y97.837 E6.27072
G1 X108.328 Y97.683 E6.29945
G1 X108.883 Y97.616 E6.31991
G1 X109.22 Y97.601 E6.33225
G1 X109.374 Y97.597 E6.33788
G1 X110.208 Y97.595 E6.3684
G1 X110.268 Y97.595 E6.37059
G1 X110.912 Y97.604 E6.39415
G1 X111.55 Y97.669 E6.41762
G1 X112.562 Y97.863 E6.45532
G1 X112.673 Y97.886 E6.45946
G1 X113.459 Y98.062 E6.48893
G1 X114.081 Y98.262 E6.51284
G1 X115.065 Y98.677 E6.55191
G1 X115.17 Y98.723 E6.5561
G1 X115.876 Y99.047 E6.58452
G1 X116.443 Y99.371 E6.60842
G1 X117.263 Y99.943 E6.64499
G1 X117.351 Y100.006 E6.64895
G1 X118.011 Y100.496 E6.67903
G1 X118.5 Y100.933 E6.70302
G1 X119.239 Y101.722 E6.74257
G1 X119.322 Y101.813 E6.74708
G1 X119.828 Y102.391 E6.77518
G1 X120.206 Y102.909 E6.79864
G1 X120.733 Y103.781 E6.83592
G1 X120.79 Y103.879 E6.84007
G1 X121.184 Y104.579 E6.86946
G1 X121.452 Y105.171 E6.89323
G1 X121.794 Y106.154 E6.93131
G1 X121.832 Y106.269 E6.93574
G1 X122.071 Y107.037 E6.96517
G1 X122.208 Y107.671 E6.9889
G1 X122.335 Y108.688 E7.0264
G1 X122.346 Y108.792 E7.03022
G1 X122.422 Y109.584 E7.05933
G1 X122.426 Y110.244 E7.08348
G1 X122.334 Y111.326 E7.12321
G1 X122.322 Y111.446 E7.12762
G1 X122.232 Y112.207 E7.15566
G1 X122.099 Y112.841 E7.17936
G1 X121.797 Y113.835 E7.21737
G1 X121.763 Y113.942 E7.22147
G1 X121.51 Y114.691 E7.2504
G1 X121.248 Y115.286 E7.27418
G1 X120.745 Y116.199 E7.31232
G1 X120.686 Y116.301 E7.31663
G1 X120.283 Y116.98 E7.34552
G1 X119.905 Y117.506 E7.36922
G1 X119.216 Y118.303 E7.40776
G1 X119.14 Y118.388 E7.41193
G1 X118.608 Y118.966 E7.44068
G1 X118.123 Y119.406 E7.46463
G1 X117.289 Y120.037 E7.5029
G1 X117.197 Y120.104 E7.50706
G1 X116.552 Y120.561 E7.53598
G1 X115.989 Y120.889 E7.55982
G1 X115.031 Y121.338 E7.59853
G1 X114.933 Y121.382 E7.60246
G1 X114.229 Y121.687 E7.63053
G1 X113.606 Y121.893 E7.65453
G1 X112.556 Y122.138 E7.69398
G1 X112.445 Y122.162 E7.69814
G1 X111.699 Y122.312 E7.72598
G1 X111.051 Y122.383 E7.74983
G1 X110.003 Y122.404 E7.78818
G1 X109.888 Y122.405 E7.79238
G1 X109.097 Y122.396 E7.82133
G1 X108.451 Y122.331 E7.84508
G1 X107.427 Y122.135 E7.88322
G1 X107.312 Y122.111 E7.88752
G1 X106.538 Y121.937 E7.91655
G1 X105.919 Y121.738 E7.94033
G1 X104.935 Y121.323 E7.97941
G1 X104.83 Y121.277 E7.9836
G1 X104.124 Y120.953 E8.01202
G1 X103.557 Y120.629 E8.03591
G1 X102.737 Y120.057 E8.07249
G1 X102.649 Y119.994 E8.07645
G1 X101.989 Y119.504 E8.10652
G1 X101.5 Y119.067 E8.13052
G1 X100.761 Y118.278 E8.17007
G1 X100.678 Y118.187 E8.17458
G1 X100.172 Y117.609 E8.20268
G1 X99.794 Y117.091 E8.22614
G1 X99.267 Y116.219 E8.26342
G1 X99.21 Y116.121 E8.26757
G1 X98.816 Y115.421 E8.29695
G1 X98.548 Y114.829 E8.32073
G1 X98.206 Y113.846 E8.35881
G1 X98.168 Y113.731 E8.36324
G1 X97.929 Y112.963 E8.39267
G1 X97.792 Y112.329 E8.4164
G1 X97.665 Y111.312 E8.4539
G1 X97.654 Y111.208 E8.45772
G1 X97.578 Y110.416 E8.48683
G1 X97.574 Y109.756 E8.51098
G1 X97.666 Y108.674 E8.55071
G1 X97.678 Y108.555 E8.55508
G1 X97.768 Y107.793 E8.58316
G1 X97.901 Y107.157 E8.60693
G1 X98.203 Y106.164 E8.6449
G1 X98.237 Y106.058 E8.64897
G1 X98.49 Y105.309 E8.6779
G1 X98.752 Y104.714 E8.70168
G1 X99.255 Y103.801 E8.73982
G1 X99.314 Y103.699 E8.74413
G1 X99.717 Y103.02 E8.77302
G1 X100.095 Y102.494 E8.79672
G1 X100.784 Y101.697 E8.83526
G1 X100.86 Y101.612 E8.83943
G1 X101.392 Y101.034 E8.86817
G0 F6000 X101.716 Y101.332
G1 F1200 X102.142 Y100.945 E8.88923
G1 X102.976 Y100.314 E8.92749
G1 X103.059 Y100.253 E8.93126
G1 X103.705 Y99.796 E8.96021
G1 X104.197 Y99.51 E8.98103
G1 X105.154 Y99.061 E9.01971
G1 X105.242 Y99.021 E9.02324
G1 X105.946 Y98.716 E9.05131
G1 X106.494 Y98.535 E9.07243
G1 X107.544 Y98.29 E9.11188
G1 X107.645 Y98.269 E9.11565
G1 X108.415 Y98.115 E9.14438
G1 X108.903 Y98.055 E9.16237
G1 X109.24 Y98.04 E9.17471
G1 X109.375 Y98.037 E9.17965
G1 X110.209 Y98.035 E9.21016
G1 X110.262 Y98.035 E9.2121
G1 X110.906 Y98.044 E9.23567
G1 X111.467 Y98.102 E9.2563
G1 X112.479 Y98.296 E9.294
G1 X112.577 Y98.316 E9.29766
G1 X113.363 Y98.492 E9.32713
G1 X113.91 Y98.667 E9.34814
G1 X114.894 Y99.082 E9.38721
G1 X114.986 Y99.122 E9.39088
G1 X115.692 Y99.446 E9.4193
G1 X116.191 Y99.732 E9.44034
G1 X117.011 Y100.304 E9.47692
G1 X117.088 Y100.36 E9.48041
G1 X117.748 Y100.85 E9.51048
G1 X118.179 Y101.234 E9.5316
G1 X118.918 Y102.023 E9.57115
G1 X118.991 Y102.103 E9.57511
G1 X119.497 Y102.681 E9.60322
G1 X119.83 Y103.137 E9.62388
G1 X120.357 Y104.009 E9.66115
G1 X120.407 Y104.095 E9.66479
G1 X120.801 Y104.795 E9.69418
G1 X121.036 Y105.316 E9.71509
G1 X121.378 Y106.299 E9.75317
G1 X121.412 Y106.4 E9.75707
G1 X121.651 Y107.168 E9.7865
G1 X121.771 Y107.726 E9.80738
G1 X121.898 Y108.743 E9.84488
G1 X121.908 Y108.834 E9.84823
G1 X121.984 Y109.626 E9.87733
G1 X121.987 Y110.207 E9.89859
G1 X121.895 Y111.289 E9.93832
G1 X121.885 Y111.394 E9.94218
G1 X121.795 Y112.155 E9.97022
G1 X121.678 Y112.713 E9.99107
G1 X121.376 Y113.707 E10.02908
G1 X121.346 Y113.801 E10.03269
G1 X121.093 Y114.55 E10.06162
G1 X120.862 Y115.074 E10.08257
G1 X120.359 Y115.987 E10.12071
G1 X120.308 Y116.076 E10.12446
G1 X119.905 Y116.755 E10.15335
G1 X119.572 Y117.218 E10.17421
G1 X118.883 Y118.015 E10.21276
G1 X118.816 Y118.09 E10.21644
G1 X118.284 Y118.668 E10.24518
G1 X117.858 Y119.055 E10.26623
G1 X117.024 Y119.686 E10.3045
G1 X116.943 Y119.745 E10.30816
G1 X116.298 Y120.202 E10.33708
G1 X115.803 Y120.491 E10.35805
G1 X114.845 Y120.94 E10.39676
G1 X114.758 Y120.979 E10.40025
G1 X114.054 Y121.284 E10.42832
G1 X113.506 Y121.465 E10.44943
G1 X112.456 Y121.71 E10.48888
G1 X112.359 Y121.731 E10.49251
G1 X111.613 Y121.881 E10.52035
G1 X111.043 Y121.943 E10.54133
G1 X109.995 Y121.964 E10.57968
G1 X109.893 Y121.965 E10.58341
G1 X109.102 Y121.956 E10.61235
G1 X108.534 Y121.899 E10.63324
G1 X107.51 Y121.703 E10.67138
G1 X107.409 Y121.682 E10.67516
G1 X106.635 Y121.508 E10.70418
G1 X106.09 Y121.333 E10.72512
G1 X105.106 Y120.918 E10.76419
G1 X105.014 Y120.878 E10.76786
G1 X104.308 Y120.554 E10.79628
G1 X103.809 Y120.268 E10.81733
G1 X102.989 Y119.696 E10.85391
G1 X102.912 Y119.64 E10.85739
G1 X102.252 Y119.15 E10.88746
G1 X101.821 Y118.766 E10.90858
G1 X101.082 Y117.977 E10.94813
G1 X101.009 Y117.897 E10.9521
G1 X100.503 Y117.319 E10.9802
G1 X100.17 Y116.863 E11.00086
G1 X99.643 Y115.991 E11.03814
G1 X99.593 Y115.905 E11.04178
G1 X99.199 Y115.205 E11.07116
G1 X98.964 Y114.684 E11.09208
G1 X98.622 Y113.701 E11.13015
G1 X98.588 Y113.6 E11.13405
G1 X98.349 Y112.832 E11.16348
G1 X98.229 Y112.274 E11.18436
G1 X98.102 Y111.257 E11.22186
G1 X98.092 Y111.166 E11.22521
G1 X98.016 Y110.374 E11.25432
G1 X98.013 Y109.793 E11.27557
G1 X98.105 Y108.711 E11.3153
G1 X98.115 Y108.606 E11.31916
G1 X98.205 Y107.844 E11.34723
G1 X98.322 Y107.285 E11.36813
G1 X98.624 Y106.292 E11.4061
G1 X98.654 Y106.199 E11.40968
G1 X98.907 Y105.45 E11.4386
G1 X99.138 Y104.926 E11.45955
G1 X99.641 Y104.013 E11.49769
G1 X99.692 Y103.924 E11.50144
G1 X100.095 Y103.245 E11.53033
G1 X100.428 Y102.782 E11.5512
G1 X101.117 Y101.985 E11.58974
G1 X101.184 Y101.91 E11.59342
G1 X101.716 Y101.332 E11.62216
G1 F2700 E6.62216
;MESH:buckynode.stl
G0 F6000 X108.915 Y100.611
G0 X109.284 Y102.356
;TYPE:WALL-INNER
G1 F2700 E11.62216
G1 F1200 X110.809 Y102.355 E11.67796
G1 X112.371 Y102.687 E11.73638
G1 X113.85 Y103.346 E11.79562
G1 X115.144 Y104.284 E11.85409
G1 X116.216 Y105.479 E11.91283
G1 X117.024 Y106.876 E11.97187
G1 X117.517 Y108.396 E12.03033
G1 X117.687 Y110 E12.08935
G1 X117.517 Y111.604 E12.14836
G1 X117.023 Y113.126 E12.2069
G1 X116.219 Y114.519 E12.26575
G1 X115.143 Y115.711 E12.3245
G1 X113.844 Y116.656 E12.38327
